; generated by PrusaSlicer 2.7.1+win64 on 2024-02-07 at 15:42:29 UTC


;
;
; 

; external perimeters extrusion width = 0.60mm
; perimeters extrusion width = 0.50mm
; infill extrusion width = 0.50mm
; solid infill extrusion width = 0.50mm
; top infill extrusion width = 0.45mm
; first layer extrusion width = 0.42mm

M73 P0 R17
M73 Q0 S17
M201 X1000 Y1000 Z200 E5000 ; sets maximum accelerations, mm/sec^2
M203 X200 Y200 Z12 E120 ; sets maximum feedrates, mm / sec
M204 S1250 T1250 ; sets acceleration (S) and retract acceleration (R), mm/sec^2
M205 X8.00 Y8.00 Z0.40 E4.50 ; sets the jerk limits, mm/sec
M205 S0 T0 ; sets the minimum extruding and travel feed rate, mm/sec

; printing object fiber_coil_hanger.stl id:0 copy 0
; stop printing object fiber_coil_hanger.stl id:0 copy 0

;TYPE:Custom
M862.3 P "MK3S" ; printer model check
M862.1 P0.4 ; nozzle diameter check
M115 U3.13.1 ; tell printer latest fw version
G90 ; use absolute coordinates
M83 ; extruder relative mode
M104 S230 ; set extruder temp
M140 S85 ; set bed temp
M190 S85 ; wait for bed temp
M109 S230 ; wait for extruder temp
G28 W ; home all without mesh bed level
G80 ; mesh bed leveling

G1 Z0.2 F720
G1 Y-3 F1000 ; go outside print area
G92 E0
G1 X60 E9 F1000 ; intro line
G1 X100 E12.5 F1000 ; intro line

G92 E0
M221 S95

; Don't change E values below. Excessive value can damage the printer.

M907 E538 ; set extruder motor current
G21 ; set units to millimeters
G90 ; use absolute coordinates
M83 ; use relative distances for extrusion
M900 K0.08 ; Filament gcode LA 1.5
M900 K45 ; Filament gcode LA 1.0

M107
;LAYER_CHANGE
;Z:0.2
;HEIGHT:0.2
;BEFORE_LAYER_CHANGE
G92 E0.0
;0.2


G1 E-1 F2100
G1 Z.2 F720
;AFTER_LAYER_CHANGE
;0.2
G1 X97.668 Y92.251 F10800
G1 Z.2 F720
G1 E1 F2100
M204 S800
;TYPE:Skirt/Brim
;WIDTH:0.42
G1 F1200
G1 X98.75 Y91.41 E.04297
G1 X100.007 Y90.8 E.04381
G1 X101.102 Y90.509 E.03552
G1 X102.25 Y90.401 E.03615
G1 X136.374 Y90.404 E1.06993
G1 X138.223 Y90.552 E.05816
G1 X140.327 Y90.998 E.06744
G1 X141.19 Y91.278 E.02845
G1 X143.727 Y92.468 E.08786
G1 X146.181 Y94.302 E.09606
G1 X147.952 Y96.268 E.08297
G1 X149.517 Y98.892 E.0958
G1 X150.499 Y101.768 E.09529
G1 X150.852 Y104.559 E.08821
G1 X150.853 Y105.486 E.02907
G1 X150.629 Y107.617 E.06718
G1 X150.439 Y108.512 E.02869
M73 Q1 S17
G1 X149.517 Y111.164 E.08803
G1 X148.333 Y113.241 E.07496
G1 X147.795 Y113.982 E.02871
G1 X145.875 Y116.03 E.08802
M73 P1 R17
G1 X143.739 Y117.581 E.08277
G1 X140.981 Y118.858 E.09529
G1 X138.231 Y119.503 E.08856
G1 X137.33 Y119.598 E.02841
G1 X134.93 Y119.586 E.07525
G1 X132.173 Y119.058 E.08801
G1 X131.31 Y118.778 E.02845
G1 X129.253 Y117.86 E.07063
G1 X99.253 Y102.932 E1.05065
G1 X97.981 Y102.087 E.04788
G1 X97.02 Y101.086 E.04351
G1 X96.291 Y99.91 E.04338
G1 X96.032 Y99.296 E.02089
G1 X95.736 Y98.203 E.0355
G1 X95.634 Y97.237 E.03046
G1 X95.735 Y95.857 E.04338
G1 X96.121 Y94.528 E.04339
G1 X96.773 Y93.312 E.04326
G1 X97.629 Y92.297 E.04163
M204 S1000
; printing object fiber_coil_hanger.stl id:0 copy 0
;WIPE_START
G1 F8640
G1 X97.668 Y92.251 E-.01393
G1 X98.75 Y91.41 E-.31643
G1 X100.007 Y90.8 E-.32262
G1 X101.102 Y90.509 E-.26161
G1 X101.47 Y90.474 E-.08541
;WIPE_END
G1 Z.4 F720
G1 X104.251 Y99.319 F10800
G1 Z.2 F720
G1 E1 F2100
M204 S800
;TYPE:Perimeter
;WIDTH:0.433186
G1 F1200
G1 X104.826 Y99.293 E.01868
G1 X104.671 Y99.48 E.00788
;WIDTH:0.442857
G1 X104.132 Y99.908 E.02289
G1 X103.886 Y100.043 E.00933
;WIDTH:0.436553
G1 X103.378 Y100.274 E.01827
;WIDTH:0.442845
G1 X102.798 Y100.424 E.01992
G1 X102.518 Y100.448 E.00935
;WIDTH:0.436553
G1 X101.96 Y100.452 E.01826
;WIDTH:0.442843
G1 X101.369 Y100.353 E.01993
G1 X101.104 Y100.261 E.00933
;WIDTH:0.436555
G1 X100.592 Y100.038 E.01828
;WIDTH:0.442843
G1 X100.093 Y99.708 E.01989
G1 X99.888 Y99.515 E.00936
;WIDTH:0.436554
G1 X99.511 Y99.104 E.01825
;WIDTH:0.442845
G1 X99.189 Y98.598 E.01994
G1 X99.08 Y98.34 E.00931
;WIDTH:0.436553
G1 X98.904 Y97.81 E.01828
;WIDTH:0.442845
G1 X98.815 Y97.218 E.01991
G1 X98.821 Y96.937 E.00935
;WIDTH:0.436553
G1 X98.875 Y96.382 E.01825
;WIDTH:0.442845
G1 X99.035 Y95.804 E.01994
G1 X99.154 Y95.55 E.00933
;WIDTH:0.436553
G1 X99.43 Y95.065 E.01826
;WIDTH:0.442843
G1 X99.811 Y94.602 E.01994
G1 X100.023 Y94.419 E.00931
;WIDTH:0.436553
G1 X100.472 Y94.087 E.01828
;WIDTH:0.442846
G1 X101.008 Y93.82 E.01991
G1 X101.24 Y93.748 E.00808
;WIDTH:0.443039
G1 X101.75 Y93.623 E.01747
;WIDTH:0.444381
G1 X102.291 Y93.577 E.01812
G1 X136.171 Y93.577 E1.13097
G1 X136.762 Y93.633 E.01982
G1 X137.612 Y93.668 E.0284
G1 X139.616 Y94.094 E.06839
G1 X139.944 Y94.2 E.01151
G1 X141.816 Y95.033 E.0684
G1 X142.115 Y95.205 E.01151
G1 X143.772 Y96.409 E.06837
G1 X144.036 Y96.646 E.01184
G1 X145.4 Y98.161 E.06805
G1 X145.603 Y98.439 E.01149
G1 X146.627 Y100.213 E.06838
G1 X146.769 Y100.528 E.01153
G1 X147.402 Y102.476 E.06837
G1 X147.475 Y102.813 E.01151
G1 X147.69 Y104.871 E.06907
G1 X147.69 Y105.195 E.01082
G1 X147.476 Y107.233 E.06841
G1 X147.405 Y107.57 E.0115
G1 X146.772 Y109.518 E.06837
G1 X146.633 Y109.834 E.01152
G1 X145.609 Y111.608 E.06838
G1 X145.407 Y111.887 E.0115
G1 X144.036 Y113.41 E.06841
G1 X143.78 Y113.641 E.01151
G1 X142.123 Y114.845 E.06837
G1 X141.825 Y115.019 E.01152
G1 X139.954 Y115.852 E.06837
G1 X139.626 Y115.96 E.01153
G1 X137.622 Y116.386 E.06839
G1 X137.269 Y116.423 E.01185
G1 X135.231 Y116.423 E.06803
G1 X134.888 Y116.388 E.01151
G1 X132.884 Y115.962 E.06839
G1 X132.556 Y115.856 E.01151
G1 X130.684 Y115.023 E.0684
G1 X130.385 Y114.852 E.0115
G1 X128.728 Y113.648 E.06837
G1 X128.471 Y113.418 E.01151
G1 X127.1 Y111.895 E.06841
G1 X126.897 Y111.617 E.01149
G1 X125.873 Y109.843 E.06838
G1 X125.731 Y109.528 E.01153
G1 X125.098 Y107.58 E.06837
G1 X125.025 Y107.243 E.01151
G1 X124.878 Y105.837 E.04719
G1 X125.281 Y105.837 E.01345
G1 X125.424 Y107.191 E.04545
G1 X125.48 Y107.456 E.00904
G1 X126.11 Y109.394 E.06803
G1 X126.22 Y109.642 E.00906
G1 X127.239 Y111.407 E.06803
G1 X127.399 Y111.627 E.00908
G1 X128.762 Y113.141 E.068
G1 X128.964 Y113.323 E.00908
G1 X130.613 Y114.521 E.06804
G1 X130.848 Y114.656 E.00905
G1 X132.71 Y115.485 E.06804
G1 X132.968 Y115.569 E.00906
G1 X134.961 Y115.993 E.06802
G1 X135.231 Y116.021 E.00906
G1 X137.269 Y116.021 E.06803
G1 X137.539 Y115.993 E.00906
G1 X139.532 Y115.569 E.06802
G1 X139.79 Y115.485 E.00906
G1 X141.652 Y114.656 E.06804
G1 X141.887 Y114.521 E.00905
G1 X143.536 Y113.323 E.06804
G1 X143.738 Y113.141 E.00908
G1 X145.101 Y111.627 E.068
G1 X145.261 Y111.407 E.00908
M73 Q2 S17
G1 X146.28 Y109.642 E.06803
G1 X146.39 Y109.394 E.00906
G1 X147.02 Y107.456 E.06803
G1 X147.076 Y107.191 E.00904
G1 X147.289 Y105.164 E.06804
G1 X147.289 Y104.892 E.00908
M73 P2 R17
G1 X147.076 Y102.866 E.068
G1 X147.02 Y102.6 E.00907
G1 X146.39 Y100.662 E.06803
G1 X146.28 Y100.414 E.00906
G1 X145.261 Y98.649 E.06803
G1 X145.101 Y98.43 E.00905
G1 X143.738 Y96.915 E.06803
G1 X143.536 Y96.733 E.00908
G1 X141.887 Y95.535 E.06804
G1 X141.652 Y95.4 E.00905
G1 X139.79 Y94.571 E.06804
G1 X139.532 Y94.487 E.00906
G1 X137.539 Y94.063 E.06802
G1 X136.171 Y93.979 E.04575
G1 X102.3 Y93.979 E1.13067
G1 X101.808 Y94.018 E.01648
;WIDTH:0.443039
G1 X101.18 Y94.181 E.02159
;WIDTH:0.442845
G1 X100.611 Y94.466 E.02116
G1 X100.114 Y94.863 E.02115
G1 X99.711 Y95.354 E.02112
G1 X99.418 Y95.919 E.02116
G1 X99.249 Y96.532 E.02115
G1 X99.212 Y97.166 E.02112
G1 X99.307 Y97.795 E.02115
G1 X99.531 Y98.39 E.02114
G1 X99.873 Y98.926 E.02114
G1 X100.32 Y99.379 E.02116
G1 X100.85 Y99.728 E.0211
G1 X101.443 Y99.96 E.02118
G1 X102.07 Y100.064 E.02114
G1 X102.705 Y100.035 E.02114
G1 X103.32 Y99.875 E.02113
G1 X103.824 Y99.634 E.01858
;WIDTH:0.436574
G1 X104.203 Y99.355 E.0154
M204 S1000
G1 X104.089 Y98.942 F10800
M204 S800
;TYPE:External perimeter
;WIDTH:0.419999
G1 F1200
G1 X104.587 Y98.92 E.01563
G1 X105.263 Y98.837 E.02135
G1 X105.595 Y98.876 E.01048
G1 X105.459 Y99.124 E.00887
G1 X104.951 Y99.747 E.0252
G1 X104.327 Y100.249 E.02511
G1 X103.612 Y100.611 E.02513
G1 X102.837 Y100.816 E.02514
G1 X102.037 Y100.855 E.02511
G1 X101.246 Y100.727 E.02512
G1 X100.499 Y100.437 E.02512
G1 X99.828 Y99.999 E.02512
G1 X99.263 Y99.43 E.02514
G1 X98.829 Y98.757 E.02511
G1 X98.545 Y98.008 E.02512
G1 X98.422 Y97.216 E.02513
G1 X98.466 Y96.416 E.02512
G1 X98.676 Y95.643 E.02512
G1 X99.042 Y94.93 E.02513
G1 X99.549 Y94.309 E.02514
G1 X100.173 Y93.807 E.02511
G1 X100.888 Y93.445 E.02513
G1 X101.666 Y93.24 E.02523
G1 X102.275 Y93.188 E.01916
G1 X136.171 Y93.188 E1.06278
G1 X136.762 Y93.244 E.01861
G1 X137.673 Y93.283 E.02859
G1 X139.697 Y93.714 E.06488
G1 X140.084 Y93.836 E.01272
G1 X141.974 Y94.677 E.06486
G1 X142.327 Y94.878 E.01274
G1 X144.001 Y96.094 E.06487
G1 X144.305 Y96.363 E.01273
G1 X145.689 Y97.9 E.06485
G1 X145.93 Y98.227 E.01274
G1 X146.965 Y100.019 E.06489
G1 X147.133 Y100.388 E.01271
G1 X147.772 Y102.356 E.06488
G1 X147.86 Y102.752 E.01272
G1 X148.079 Y104.871 E.06679
G1 X148.079 Y105.216 E.01082
G1 X147.863 Y107.273 E.06485
G1 X147.782 Y107.671 E.01273
G1 X147.142 Y109.639 E.06489
G1 X146.98 Y110.011 E.01272
G1 X145.946 Y111.802 E.06484
G1 X145.71 Y112.133 E.01275
G1 X144.325 Y113.67 E.06487
G1 X144.026 Y113.944 E.01272
G1 X142.352 Y115.16 E.06487
G1 X142.002 Y115.366 E.01273
G1 X140.112 Y116.208 E.06487
G1 X139.727 Y116.336 E.01272
G1 X137.703 Y116.766 E.06488
G1 X137.3 Y116.812 E.01272
G1 X135.231 Y116.812 E.06487
G1 X134.827 Y116.773 E.01273
G1 X132.803 Y116.343 E.06488
G1 X132.416 Y116.22 E.01273
G1 X130.526 Y115.379 E.06486
G1 X130.173 Y115.179 E.01272
G1 X128.499 Y113.962 E.06489
G1 X128.195 Y113.693 E.01273
G1 X126.811 Y112.156 E.06485
G1 X126.57 Y111.829 E.01274
G1 X125.535 Y110.038 E.06486
G1 X125.367 Y109.668 E.01274
G1 X124.728 Y107.7 E.06488
G1 X124.64 Y107.304 E.01272
G1 X124.445 Y105.448 E.05851
G1 X125.632 Y105.448 E.03722
G1 X125.827 Y107.264 E.05727
G1 X126.48 Y109.274 E.06626
G1 X126.519 Y109.382 E.0036
G1 X127.576 Y111.212 E.06626
G1 X127.637 Y111.31 E.00362
G1 X129.132 Y112.963 E.06988
G1 X130.937 Y114.27 E.06987
G1 X132.975 Y115.173 E.06989
G1 X135.155 Y115.632 E.06985
G1 X137.269 Y115.632 E.06628
G1 X137.384 Y115.628 E.00361
G1 X139.563 Y115.16 E.06988
G1 X141.597 Y114.25 E.06987
G1 X143.398 Y112.937 E.06988
G1 X144.886 Y111.278 E.06987
G1 X145.943 Y109.448 E.06626
G1 X145.997 Y109.346 E.00362
G1 X146.681 Y107.225 E.06987
G1 X146.91 Y105.008 E.06988
G1 X146.673 Y102.792 E.06988
M73 Q3 S17
G1 X145.981 Y100.674 E.06986
G1 X144.924 Y98.844 E.06626
G1 X144.863 Y98.746 E.00362
M73 P3 R17
G1 X143.368 Y97.093 E.06988
G1 X141.563 Y95.786 E.06987
G1 X139.525 Y94.884 E.06988
G1 X137.345 Y94.424 E.06986
G1 X136.571 Y94.424 E.02427
G1 X136.542 Y94.382 E.0016
G1 X136.471 Y94.368 E.00227
G1 X102.3 Y94.368 E1.07141
G1 X101.889 Y94.398 E.01292
G1 X101.338 Y94.536 E.01781
G1 X100.839 Y94.78 E.01742
G1 X100.403 Y95.123 E.01739
G1 X100.047 Y95.548 E.01738
G1 X99.788 Y96.039 E.01741
G1 X99.636 Y96.572 E.01738
G1 X99.598 Y97.126 E.01741
G1 X99.676 Y97.675 E.01739
G1 X99.867 Y98.196 E.0174
G1 X100.162 Y98.666 E.0174
G1 X100.548 Y99.064 E.01738
G1 X101.009 Y99.374 E.01742
G1 X101.523 Y99.58 E.01736
G1 X102.07 Y99.676 E.01741
G1 X102.624 Y99.655 E.01738
G1 X103.162 Y99.52 E.01739
G1 X103.66 Y99.276 E.01739
G1 X104.042 Y98.979 E.01517
M204 S1000
; stop printing object fiber_coil_hanger.stl id:0 copy 0
;LAYER_CHANGE
;Z:0.5
;HEIGHT:0.3
;BEFORE_LAYER_CHANGE
G92 E0.0
;0.5


;WIPE_START
G1 F8640
G1 X104.089 Y98.942 E-.01381
G1 X104.587 Y98.92 E-.1151
G1 X105.263 Y98.837 E-.15726
G1 X105.595 Y98.876 E-.07719
G1 X105.459 Y99.124 E-.06531
G1 X104.951 Y99.747 E-.18561
G1 X104.327 Y100.249 E-.18492
G1 X103.612 Y100.611 E-.18505
G1 X103.546 Y100.628 E-.01575
;WIPE_END
G1 Z.5 F720
;AFTER_LAYER_CHANGE
;0.5
M140 S90 ; set bed temperature
G1 Z.7
G1 X101.775 Y104.187 F10800
G1 Z.5 F720
G1 E1 F2100
;TYPE:Skirt/Brim
;WIDTH:0.42
G1 F2322
G1 X99.253 Y102.932 E.12495
G1 X97.981 Y102.087 E.06773
G1 X97.02 Y101.086 E.06155
G1 X96.291 Y99.91 E.06137
G1 X96.032 Y99.296 E.02956
G1 X95.736 Y98.203 E.05023
G1 X95.634 Y97.237 E.04308
G1 X95.735 Y95.857 E.06137
G1 X96.121 Y94.528 E.06138
G1 X96.773 Y93.312 E.0612
G1 X97.668 Y92.251 E.06157
G1 X98.75 Y91.41 E.06078
G1 X100.007 Y90.8 E.06197
G1 X101.102 Y90.509 E.05025
G1 X102.25 Y90.401 E.05114
G1 X136.374 Y90.404 E1.51356
G1 X138.223 Y90.552 E.08227
G1 X140.327 Y90.998 E.0954
G1 X141.19 Y91.278 E.04024
G1 X143.727 Y92.468 E.12429
G1 X146.181 Y94.302 E.13589
G1 X147.952 Y96.268 E.11737
G1 X149.517 Y98.892 E.13552
G1 X150.499 Y101.768 E.1348
G1 X150.852 Y104.559 E.12478
G1 X150.853 Y105.486 E.04112
G1 X150.629 Y107.617 E.09504
G1 X150.439 Y108.512 E.04058
G1 X149.517 Y111.164 E.12454
G1 X148.333 Y113.241 E.10604
G1 X147.795 Y113.982 E.04062
G1 X145.875 Y116.03 E.12452
G1 X143.739 Y117.581 E.11708
G1 X140.981 Y118.858 E.13481
G1 X138.231 Y119.503 E.12529
G1 X137.33 Y119.598 E.04019
G1 X134.93 Y119.586 E.10645
G1 X132.173 Y119.058 E.12451
G1 X131.31 Y118.778 E.04024
G1 X129.253 Y117.86 E.09991
G1 X101.829 Y104.214 E1.35865
; printing object fiber_coil_hanger.stl id:0 copy 0
;WIPE_START
G1 F8640
M73 P3 R16
M73 Q3 S16
G1 X101.775 Y104.187 E-.01394
G1 X99.253 Y102.932 E-.65045
G1 X98.043 Y102.128 E-.33561
;WIPE_END
G1 Z.7 F720
G1 X104.229 Y99.316 F10800
G1 Z.5 F720
G1 E1 F2100
M204 S800
;TYPE:Perimeter
;WIDTH:0.485564
G1 F2322
G1 X104.826 Y99.316 E.03136
G1 X104.682 Y99.49 E.01186
;WIDTH:0.494659
G1 X104.141 Y99.919 E.03705
G1 X103.875 Y100.065 E.01628
;WIDTH:0.489929
G1 X103.401 Y100.283 E.02769
;WIDTH:0.494657
G1 X102.802 Y100.438 E.0332
G1 X102.499 Y100.463 E.01632
;WIDTH:0.489928
G1 X101.977 Y100.469 E.02771
;WIDTH:0.494656
G1 X101.367 Y100.368 E.03318
G1 X101.08 Y100.268 E.01631
;WIDTH:0.48993
G1 X100.601 Y100.061 E.0277
;WIDTH:0.494663
G1 X100.085 Y99.72 E.03319
G1 X99.864 Y99.512 E.01629
;WIDTH:0.489395
G1 X99.511 Y99.128 E.02765
;WIDTH:0.4946
G1 X99.177 Y98.607 E.03321
G1 X99.06 Y98.326 E.01633
;WIDTH:0.489928
G1 X98.893 Y97.832 E.02768
;WIDTH:0.494657
G1 X98.801 Y97.221 E.03316
G1 X98.808 Y96.917 E.01632
;WIDTH:0.489924
G1 X98.856 Y96.397 E.02772
;WIDTH:0.495394
G1 X99.021 Y95.801 E.03325
G1 X99.154 Y95.519 E.01676
;WIDTH:0.489929
G1 X99.406 Y95.072 E.02724
;WIDTH:0.494658
G1 X99.799 Y94.594 E.03321
G1 X100.032 Y94.393 E.01651
;WIDTH:0.489863
G1 X100.458 Y94.079 E.02808
;WIDTH:0.494658
G1 X101.001 Y93.807 E.03259
G1 X101.292 Y93.72 E.0163
;WIDTH:0.492533
G1 X101.793 Y93.602 E.02749
;WIDTH:0.502684
G1 X102.293 Y93.565 E.02741
G1 X136.171 Y93.562 E1.85203
;WIDTH:0.497055
G1 X136.607 Y93.617 E.02372
G1 X137.614 Y93.653 E.05438
;WIDTH:0.49657
G1 X139.619 Y94.079 E.11049
G1 X139.95 Y94.185 E.01874
G1 X141.822 Y95.019 E.11047
G1 X142.123 Y95.192 E.01871
G1 X143.781 Y96.396 E.11045
G1 X144.04 Y96.628 E.01874
G1 X145.411 Y98.151 E.11046
G1 X145.616 Y98.431 E.01871
G1 X146.641 Y100.206 E.11049
G1 X146.783 Y100.522 E.01867
G1 X147.416 Y102.471 E.11046
G1 X147.49 Y102.811 E.01876
G1 X147.705 Y104.871 E.11165
;WIDTH:0.496571
G1 X147.705 Y105.196 E.01752
G1 X147.491 Y107.234 E.11046
G1 X147.42 Y107.574 E.01872
G1 X146.787 Y109.523 E.11046
G1 X146.646 Y109.841 E.01875
G1 X145.622 Y111.616 E.11046
G1 X145.419 Y111.897 E.01869
G1 X144.047 Y113.42 E.1105
G1 X143.79 Y113.653 E.0187
G1 X142.132 Y114.858 E.11049
G1 X141.832 Y115.033 E.01872
G1 X139.96 Y115.866 E.11045
G1 X139.63 Y115.974 E.01872
G1 X137.626 Y116.401 E.11045
G1 X137.28 Y116.438 E.01876
G1 X135.231 Y116.438 E.11045
G1 X134.874 Y116.401 E.01935
G1 X132.881 Y115.977 E.10984
G1 X132.55 Y115.871 E.01874
G1 X130.678 Y115.037 E.11047
G1 X130.377 Y114.865 E.01869
G1 X128.719 Y113.66 E.11049
G1 X128.46 Y113.429 E.01871
G1 X127.089 Y111.906 E.11046
G1 X126.884 Y111.625 E.01875
G1 X125.859 Y109.851 E.11044
G1 X125.717 Y109.534 E.01872
G1 X125.084 Y107.585 E.11046
G1 X125.01 Y107.245 E.01876
G1 X124.861 Y105.822 E.07713
G1 X125.295 Y105.822 E.02339
G1 X125.439 Y107.189 E.0741
G1 X125.495 Y107.451 E.01444
G1 X126.124 Y109.39 E.10988
G1 X126.233 Y109.634 E.01441
G1 X127.252 Y111.399 E.10986
G1 X127.41 Y111.616 E.01447
G1 X128.774 Y113.131 E.10989
G1 X128.973 Y113.31 E.01443
G1 X130.622 Y114.508 E.10987
G1 X130.854 Y114.642 E.01444
M73 Q4 S16
