; generated by PrusaSlicer 2.7.1+win64 on 2024-01-26 at 16:22:04 UTC


;
;
; 

; external perimeters extrusion width = 0.60mm
; perimeters extrusion width = 0.50mm
; infill extrusion width = 0.50mm
; solid infill extrusion width = 0.50mm
; top infill extrusion width = 0.45mm
; first layer extrusion width = 0.42mm

M73 P0 R1
M73 Q0 S1
M201 X1000 Y1000 Z200 E5000 ; sets maximum accelerations, mm/sec^2
M203 X200 Y200 Z12 E120 ; sets maximum feedrates, mm / sec
M204 S1250 T1250 ; sets acceleration (S) and retract acceleration (R), mm/sec^2
M205 X8.00 Y8.00 Z0.40 E4.50 ; sets the jerk limits, mm/sec
M205 S0 T0 ; sets the minimum extruding and travel feed rate, mm/sec

; printing object ADL5387_housing_cover_text.stl id:0 copy 0
; stop printing object ADL5387_housing_cover_text.stl id:0 copy 0

;TYPE:Custom
M862.3 P "MK3S" ; printer model check
M862.1 P0.4 ; nozzle diameter check
M115 U3.13.1 ; tell printer latest fw version
G90 ; use absolute coordinates
M83 ; extruder relative mode
M104 S250 ; set extruder temp
M140 S90 ; set bed temp
M190 S90 ; wait for bed temp
M109 S250 ; wait for extruder temp
G28 W ; home all without mesh bed level
G80 ; mesh bed leveling

G1 Z0.2 F720
G1 Y-3 F1000 ; go outside print area
G92 E0
G1 X60 E9 F1000 ; intro line
G1 X100 E12.5 F1000 ; intro line
M73 P4 R1
M73 Q4 S1

G92 E0
M221 S95

; Don't change E values below. Excessive value can damage the printer.

M907 E538 ; set extruder motor current
G21 ; set units to millimeters
G90 ; use absolute coordinates
M83 ; use relative distances for extrusion
M900 K0.08 ; Filament gcode LA 1.5
M900 K45 ; Filament gcode LA 1.0

M107
;LAYER_CHANGE
;Z:0.2
;HEIGHT:0.2
;BEFORE_LAYER_CHANGE
G92 E0.0
;0.2


G1 E-1 F2100
M73 P7 R1
M73 Q7 S1
G1 Z.2 F720
;AFTER_LAYER_CHANGE
;0.2
G1 X96.647 Y70.61 F10800
G1 Z.2 F720
M73 P8 R1
M73 Q8 S1
G1 E1 F2100
M204 S800
;TYPE:Skirt/Brim
;WIDTH:0.42
G1 F1200
G1 X97.497 Y69.543 E.04192
G1 X98.339 Y69.174 E.02825
G1 X102.589 Y68.29 E.13339
G1 X150.099 Y68.29 E1.45985
M73 Q9 S1
G1 X151.903 Y69.12 E.06102
M73 P11 R1
M73 Q12 S1
G1 X152.793 Y70.185 E.04265
G1 X165.336 Y89.185 E.69956
M73 P12 R1
G1 X165.729 Y90.495 E.04202
M73 P13 R1
M73 Q13 S1
G1 X165.729 Y123.361 E1.00988
G1 X165.337 Y124.668 E.04193
M73 P15 R1
M73 Q15 S1
G1 X164.415 Y125.488 E.03791
G1 X134.415 Y140.488 E1.03062
G1 X133.377 Y140.738 E.03281
M73 P17 R1
M73 Q17 S1
G1 X129.283 Y140.781 E.1258
G1 X119.261 Y140.738 E.30795
M73 P18 R1
M73 Q18 S1
G1 X118.571 Y140.678 E.02128
G1 X117.803 Y140.453 E.02459
G1 X116.993 Y139.964 E.02907
G1 X82.776 Y111.181 E1.37391
G1 X81.929 Y109.361 E.06168
M73 P21 R1
M73 Q21 S1
G1 X81.98 Y107.573 E.05496
G1 X82.149 Y106.772 E.02515
G1 X96.625 Y70.666 E1.19528
M204 S1000
; printing object ADL5387_housing_cover_text.stl id:0 copy 0
;WIPE_START
G1 F8640
M73 P24 R1
M73 Q24 S1
G1 X96.647 Y70.61 E-.01389
G1 X97.497 Y69.543 E-.31499
G1 X98.339 Y69.174 E-.21227
G1 X100.284 Y68.769 E-.45885
;WIPE_END
G1 Z.4 F720
G1 X87.223 Y106.681 F10800
G1 Z.2 F720
M73 Q25 S1
G1 E1 F2100
M204 S800
;TYPE:External perimeter
;WIDTH:0.38292
G1 F1200
M73 P25 R1
G1 X87.854 Y107.664 E.03236
;WIDTH:0.41516
G1 X87.901 Y107.807 E.00457
G1 X88.058 Y107.839 E.00486
;WIDTH:0.410997
G1 X88.595 Y107.839 E.01611
;WIDTH:0.439074
G1 X89.132 Y107.839 E.01734
G1 X89.145 Y107.773 E.00217
;WIDTH:0.413815
G1 X89.158 Y107.707 E.00203
;WIDTH:0.388556
G1 X89.158 Y106.689 E.02867
M204 S1000
;WIPE_START
G1 F8640
G1 X89.158 Y107.707 E-.23506
;WIPE_END
G1 E-.76494 F2100
G1 Z.4 F720
G1 X89.132 Y107.839 F10800
G1 Z.2 F720
G1 E1 F2100
M204 S800
;WIDTH:0.439074
G1 F1200
G1 X89.145 Y107.905 E.00217
;WIDTH:0.413815
G1 X89.158 Y107.971 E.00203
;WIDTH:0.388556
G1 X89.158 Y109.072 E.03101
;WIDTH:0.408728
G1 X89.147 Y109.155 E.0025
G1 X88.984 Y109.204 E.00507
;WIDTH:0.38292
G1 X87.887 Y109.195 E.03039
G1 X87.549 Y109.11 E.00966
G1 X87.295 Y108.909 E.00897
M73 Q26 S1
;WIDTH:0.39
G1 X87.19 Y108.571 E.01001
G1 X87.27 Y108.21 E.01046
;WIDTH:0.38292
G1 X87.395 Y108.048 E.00567
G1 X87.603 Y107.918 E.0068
;WIDTH:0.41516
G1 X87.901 Y107.807 E.00965
M204 S1000
;WIPE_START
G1 F8640
G1 X87.603 Y107.918 E-.07343
;WIPE_END
G1 E-.92657 F2100
G1 Z.4 F720
M73 P26 R1
G1 X84.516 Y107.817 F10800
G1 Z.2 F720
G1 E1 F2100
M204 S800
;WIDTH:0.413788
G1 F1200
G1 X85.318 Y107.817 E.02424
;WIDTH:0.444656
G1 X86.12 Y107.817 E.02625
G1 X86.134 Y107.748 E.0023
;WIDTH:0.416606
G1 X86.149 Y107.678 E.00218
;WIDTH:0.388556
G1 X86.149 Y106.689 E.02786
M204 S1000
;WIPE_START
G1 F8640
G1 X86.149 Y107.678 E-.22836
;WIPE_END
G1 E-.77164 F2100
G1 Z.4 F720
G1 X84.465 Y109.203 F10800
G1 Z.2 F720
G1 E1 F2100
M73 Q27 S1
M204 S800
;WIDTH:0.38292
G1 F1200
G1 X85.976 Y109.203 E.04186
;WIDTH:0.411956
G1 X86.137 Y109.155 E.00505
M73 P27 R0
G1 X86.149 Y109.066 E.0027
;WIDTH:0.388556
G1 X86.149 Y107.957 E.03123
;WIDTH:0.416606
G1 X86.134 Y107.887 E.00218
;WIDTH:0.444656
G1 X86.12 Y107.817 E.00234
M204 S1000
;WIPE_START
G1 F8640
G1 X86.134 Y107.887 E-.01648
;WIPE_END
G1 E-.98352 F2100
G1 Z.4 F720
G1 X133.132 Y136.765 F10800
G1 Z.2 F720
M73 Q28 S0
G1 E1 F2100
M204 S800
;WIDTH:0.439196
G1 F1200
G1 X133.145 Y136.831 E.00217
;WIDTH:0.413879
G1 X133.158 Y136.898 E.00206
;WIDTH:0.388562
G1 X133.158 Y138.072 E.03307
;WIDTH:0.409488
G1 X133.147 Y138.157 E.00256
M73 P28 R0
G1 X132.985 Y138.206 E.00506
;WIDTH:0.38292
G1 X132.191 Y138.206 E.022
G1 X131.77 Y138.141 E.0118
G1 X131.523 Y137.993 E.00798
;WIDTH:0.38305
G1 X131.379 Y137.775 E.00724
;WIDTH:0.383966
G1 X131.335 Y137.468 E.00862
G1 X131.413 Y137.145 E.00923
;WIDTH:0.38292
G1 X131.606 Y136.921 E.00819
G1 X131.925 Y136.788 E.00958
G1 X132.985 Y136.765 E.02937
;WIDTH:0.411058
G1 X133.058 Y136.765 E.00219
;WIDTH:0.439196
G1 X133.132 Y136.765 E.00239
G1 X133.145 Y136.227 E.01738
;WIDTH:0.413879
G1 X133.158 Y135.689 E.01627
M204 S1000
;WIPE_START
G1 F8640
G1 X133.145 Y136.227 E-.12426
;WIPE_END
G1 E-.87574 F2100
G1 Z.4 F720
G1 X128.384 Y137.872 F10800
G1 Z.2 F720
M73 Q29 S0
G1 E1 F2100
M204 S800
;WIDTH:0.38292
G1 F1200
G1 X128.148 Y137.449 E.01342
G1 X128.082 Y136.919 E.0148
G1 X128.175 Y136.363 E.01562
G1 X128.406 Y135.959 E.01289
G1 X128.802 Y135.701 E.01309
M73 P29 R0
G1 X129.321 Y135.619 E.01456
G1 X129.821 Y135.711 E.01409
G1 X130.2 Y135.984 E.01294
G1 X130.437 Y136.429 E.01397
;WIDTH:0.393916
G1 X130.519 Y136.944 E.01492
;WIDTH:0.394014
G1 X130.432 Y137.504 E.01621
;WIDTH:0.388108
G1 X130.171 Y137.923 E.01389
;WIDTH:0.38292
G1 X129.773 Y138.169 E.01296
G1 X129.27 Y138.237 E.01406
G1 X128.767 Y138.15 E.01414
G1 X128.433 Y137.907 E.01144
M204 S1000
;WIPE_START
G1 F8640
G1 X128.384 Y137.872 E-.0139
G1 X128.148 Y137.449 E-.11184
G1 X128.082 Y136.919 E-.12332
G1 X128.175 Y136.363 E-.13017
G1 X128.406 Y135.959 E-.10746
G1 X128.802 Y135.701 E-.10913
G1 X129.321 Y135.619 E-.12133
G1 X129.821 Y135.711 E-.11739
G1 X130.2 Y135.984 E-.10785
G1 X130.317 Y136.204 E-.05761
;WIPE_END
G1 Z.4 F720
G1 X124.013 Y138.169 F10800
G1 Z.2 F720
M73 Q30 S0
G1 E1 F2100
M204 S800
;WIDTH:0.38517
G1 F1200
G1 X124.643 Y135.94 E.0646
;WIDTH:0.424568
G1 X124.692 Y135.876 E.00251
M73 P30 R0
;WIDTH:0.466215
G1 X124.741 Y135.813 E.00275
;WIDTH:0.507862
G1 X124.789 Y135.749 E.00303
G1 X124.893 Y135.767 E.004
;WIDTH:0.471362
G1 X124.959 Y135.858 E.00392
;WIDTH:0.427141
G1 X125.025 Y135.949 E.00352
;WIDTH:0.38292
G1 X125.521 Y137.807 E.05328
;WIDTH:0.42263
G1 X125.566 Y137.86 E.00215
;WIDTH:0.462339
G1 X125.612 Y137.914 E.00242
;WIDTH:0.502049
G1 X125.658 Y137.967 E.00263
;WIDTH:0.541758
G1 X125.703 Y138.021 E.00286
G1 X125.749 Y137.967 E.00288
;WIDTH:0.502049
G1 X125.794 Y137.913 E.00263
;WIDTH:0.462339
G1 X125.84 Y137.859 E.00242
;WIDTH:0.42263
G1 X125.886 Y137.805 E.00219
;WIDTH:0.38292
G1 X126.383 Y135.957 E.05302
;WIDTH:0.427806
G1 X126.437 Y135.889 E.00272
;WIDTH:0.472691
G1 X126.491 Y135.821 E.00304
;WIDTH:0.517576
G1 X126.546 Y135.754 E.00335
G1 X126.622 Y135.757 E.00294
;WIDTH:0.511086
G1 X126.67 Y135.823 E.00311
;WIDTH:0.468364
G1 X126.719 Y135.889 E.00285
;WIDTH:0.425642
G1 X126.768 Y135.955 E.00256
;WIDTH:0.38292
G1 X126.913 Y136.494 E.01546
;WIDTH:0.386762
G1 X127.397 Y138.168 E.04882
M204 S1000
;WIPE_START
G1 F8640
G1 X126.913 Y136.494 E-.40236
;WIPE_END
G1 E-.59764 F2100
G1 Z.4 F720
M73 Q31 S0
G1 X121.3 Y135.654 F10800
G1 Z.2 F720
G1 E1 F2100
M73 P31 R0
M204 S800
;WIDTH:0.38292
G1 F1200
G1 X123.032 Y135.654 E.04799
;WIDTH:0.41196
G1 X123.193 Y135.701 E.00504
G1 X123.205 Y135.791 E.00273
;WIDTH:0.388562
G1 X123.205 Y136.833 E.02935
;WIDTH:0.414998
G1 X123.192 Y136.9 E.00207
;WIDTH:0.441434
G1 X123.178 Y136.968 E.00225
G1 X122.341 Y136.968 E.02718
;WIDTH:0.412177
G1 X121.503 Y136.968 E.02522
M204 S1000
;WIPE_START
G1 F8640
G1 X122.341 Y136.968 E-.1935
;WIPE_END
G1 E-.8065 F2100
G1 Z.4 F720
G1 X121.383 Y138.203 F10800
G1 Z.2 F720
G1 E1 F2100
M73 Q32 S0
M204 S800
;WIDTH:0.38292
G1 F1200
G1 X123.032 Y138.203 E.04569
;WIDTH:0.411958
G1 X123.193 Y138.155 E.00505
G1 X123.205 Y137.103 E.03164
;WIDTH:0.414998
G1 X123.192 Y137.035 E.0021
;WIDTH:0.441434
G1 X123.178 Y136.968 E.00222
M73 P32 R0
M204 S1000
;WIPE_START
G1 F8640
G1 X123.192 Y137.035 E-.0158
;WIPE_END
G1 E-.9842 F2100
G1 Z.4 F720
G1 X118.491 Y135.681 F10800
G1 Z.2 F720
G1 E1 F2100
M204 S800
;WIDTH:0.38292
G1 F1200
G1 X119.122 Y136.664 E.03236
;WIDTH:0.415158
G1 X119.169 Y136.807 E.00457
G1 X119.326 Y136.839 E.00486
;WIDTH:0.410997
G1 X119.863 Y136.839 E.01611
;WIDTH:0.439074
G1 X120.4 Y136.839 E.01734
G1 X120.413 Y136.773 E.00217
;WIDTH:0.413816
G1 X120.426 Y136.707 E.00203
;WIDTH:0.388558
G1 X120.426 Y135.689 E.02867
M204 S1000
;WIPE_START
G1 F8640
G1 X120.426 Y136.707 E-.23506
;WIPE_END
G1 E-.76494 F2100
M73 Q33 S0
G1 Z.4 F720
G1 X120.4 Y136.839 F10800
G1 Z.2 F720
G1 E1 F2100
M204 S800
;WIDTH:0.439074
G1 F1200
G1 X120.413 Y136.905 E.00217
;WIDTH:0.413816
G1 X120.426 Y136.971 E.00203
M73 P33 R0
;WIDTH:0.388558
G1 X120.426 Y138.072 E.03101
;WIDTH:0.408728
G1 X120.416 Y138.155 E.00249
G1 X120.252 Y138.204 E.0051
;WIDTH:0.38292
G1 X119.155 Y138.195 E.03039
G1 X118.817 Y138.11 E.00966
G1 X118.563 Y137.909 E.00897
;WIDTH:0.389998
G1 X118.458 Y137.571 E.01001
G1 X118.538 Y137.21 E.01046
;WIDTH:0.38292
G1 X118.663 Y137.048 E.00567
G1 X118.871 Y136.918 E.0068
;WIDTH:0.415158
G1 X119.169 Y136.807 E.00965
M204 S1000
;WIPE_START
G1 F8640
G1 X118.871 Y136.918 E-.07343
;WIPE_END
G1 E-.92657 F2100
G1 Z.4 F720
G1 X120.805 Y110.892 F10800
G1 Z.2 F720
M73 Q34 S0
G1 E1 F2100
M204 S800
;WIDTH:0.40724
G1 F1200
G1 X120.979 Y110.931 E.00529
;WIDTH:0.408344
G1 X123.628 Y112.685 E.0946
;WIDTH:0.433176
G1 X123.714 Y112.727 E.00304
M73 P34 R0
G1 X123.829 Y112.685 E.00389
;WIDTH:0.408569
G1 X126.475 Y110.934 E.09454
;WIDTH:0.405841
G1 X126.56 Y110.893 E.00279
;WIDTH:0.404358
G1 X126.709 Y110.926 E.00449
G1 X126.778 Y111.06 E.00444
G1 X126.781 Y111.095 E.00103
;WIDTH:0.405841
G1 X126.687 Y111.228 E.00482
;WIDTH:0.408569
G1 X124.031 Y112.99 E.09497
;WIDTH:0.435988
G1 X123.714 Y113.131 E.01111
G1 X123.426 Y112.989 E.01028
;WIDTH:0.408344
G1 X120.778 Y111.234 E.0946
;WIDTH:0.40724
G1 X120.697 Y111.142 E.00364
M73 Q35 S0
G1 X120.68 Y110.986 E.00466
G1 X120.757 Y110.928 E.00286
M204 S1000
;WIPE_START
G1 F8640
G1 X120.805 Y110.892 E-.01385
G1 X120.979 Y110.931 E-.04117
;WIPE_END
G1 E-.94498 F2100
G1 Z.4 F720
G1 X118.299 Y103.429 F10800
M73 P35 R0
G1 Z.2 F720
G1 E1 F2100
M204 S800
;WIDTH:0.419787
G1 F1200
G1 X117.81 Y103.322 E.01537
;WIDTH:0.419996
G1 X115.378 Y103.322 E.07473
;WIDTH:0.419739
G1 X114.857 Y103.253 E.01614
G1 X114.786 Y103.151 E.00382
G1 X114.844 Y103.025 E.00426
;WIDTH:0.419996
G1 X115.38 Y102.944 E.01666
G1 X117.81 Y102.945 E.07467
;WIDTH:0.419749
G1 X118.293 Y103.029 E.01505
M73 Q36 S0
;WIDTH:0.42879
G1 X118.629 Y103.185 E.01165
G1 X119.018 Y103.524 E.01622
;WIDTH:0.422043
G1 X119.279 Y103.979 E.01621
;WIDTH:0.421297
G1 X119.368 Y104.524 E.01703
;WIDTH:0.420377
G1 X119.368 Y110.09 E.1712
;WIDTH:0.420001
G1 X119.305 Y110.576 E.01506
M73 P36 R0
;WIDTH:0.419716
G1 X119.261 Y110.663 E.00299
G1 X119.126 Y110.676 E.00416
G1 X119.066 Y110.59 E.00322
;WIDTH:0.420001
G1 X118.991 Y110.09 E.01554
;WIDTH:0.420377
G1 X118.99 Y104.524 E.1712
G1 X118.942 Y104.164 E.01117
M73 Q37 S0
;WIDTH:0.421823
G1 X118.701 Y103.731 E.0153
G1 X118.347 Y103.465 E.01367
M204 S1000
;WIPE_START
G1 F8640
G1 X118.299 Y103.429 E-.01385
G1 X117.81 Y103.322 E-.11558
;WIPE_END
G1 E-.87057 F2100
G1 Z.4 F720
G1 X125.694 Y105.771 F10800
G1 Z.2 F720
M73 P37 R0
G1 E1 F2100
M204 S800
;WIDTH:0.513883
G1 F1200
G1 X125.718 Y105.677 E.00372
;WIDTH:0.466725
G1 X125.741 Y105.583 E.00334
;WIDTH:0.419993
G1 X125.742 Y103.62 E.06032
G1 X125.808 Y103.151 E.01455
;WIDTH:0.419715
G1 X125.851 Y103.072 E.00276
G1 X125.94 Y103.045 E.00286
G1 X126.047 Y103.098 E.00367
;WIDTH:0.419993
G1 X126.119 Y103.62 E.01619
G1 X126.118 Y105.583 E.06032
;WIDTH:0.466726
G1 X126.094 Y105.771 E.00655
;WIDTH:0.513883
G1 X126.071 Y105.96 E.00731
G1 X126.094 Y106.149 E.00731
;WIDTH:0.466613
G1 X126.118 Y106.337 E.00654
;WIDTH:0.424673
G1 X126.114 Y108.352 E.06268
G1 X126.017 Y108.981 E.0198
M73 Q38 S0
;WIDTH:0.422675
G1 X125.793 Y109.505 E.01763
;WIDTH:0.422236
G1 X125.434 Y109.979 E.01838
;WIDTH:0.417701
G1 X125.051 Y110.318 E.01562
;WIDTH:0.418417
G1 X124.631 Y110.559 E.01482
;WIDTH:0.418709
G1 X124.165 Y110.711 E.01501
G1 X123.672 Y110.766 E.01519
M73 P38 R0
;WIDTH:0.418309
G1 X123.186 Y110.73 E.01491
;WIDTH:0.41845
G1 X122.718 Y110.604 E.01483
;WIDTH:0.41894
G1 X122.281 Y110.382 E.01502
G1 X121.891 Y110.071 E.01528
;WIDTH:0.41851
G1 X121.572 Y109.7 E.01498
;WIDTH:0.418713
G1 X121.332 Y109.279 E.01484
;WIDTH:0.418923
G1 X121.182 Y108.814 E.01497
G1 X121.127 Y108.32 E.01523
;WIDTH:0.418317
G1 X121.163 Y107.834 E.01491
;WIDTH:0.418514
G1 X121.289 Y107.368 E.01477
G1 X121.518 Y106.933 E.01505
;WIDTH:0.41406
G1 X121.77 Y106.606 E.01249
;WIDTH:0.414316
G1 X122.124 Y106.279 E.01458
;WIDTH:0.414869
G1 X122.536 Y106.023 E.0147
;WIDTH:0.417651
G1 X122.984 Y105.855 E.01461
G1 X123.539 Y105.777 E.01711
;WIDTH:0.420039
G1 X125.552 Y105.771 E.06186
;WIDTH:0.466961
G1 X125.623 Y105.771 E.00245
;WIDTH:0.513883
G1 X125.634 Y105.771 E.00042
M204 S1000
G1 X125.624 Y106.148 F10800
M204 S800
G1 F1200
G1 X125.694 Y106.148 E.00269
G1 X125.718 Y106.243 E.00376
;WIDTH:0.466615
G1 X125.741 Y106.338 E.00337
;WIDTH:0.424673
G1 X125.732 Y108.351 E.06262
M73 Q39 S0
G1 X125.663 Y108.844 E.01549
;WIDTH:0.422675
G1 X125.49 Y109.277 E.01443
;WIDTH:0.422236
G1 X125.14 Y109.749 E.01816
;WIDTH:0.418819
G1 X124.781 Y110.051 E.01437
G1 X124.416 Y110.244 E.01265
;WIDTH:0.418467
G1 X124.021 Y110.357 E.01257
;WIDTH:0.418357
G1 X123.604 Y110.392 E.0128
M73 P39 R0
;WIDTH:0.418796
G1 X123.183 Y110.351 E.01296
G1 X122.789 Y110.229 E.01263
;WIDTH:0.418631
G1 X122.429 Y110.03 E.01259
;WIDTH:0.418076
G1 X122.107 Y109.758 E.01289
;WIDTH:0.418642
G1 X121.84 Y109.43 E.01295
G1 X121.648 Y109.065 E.01263
;WIDTH:0.418435
G1 X121.536 Y108.67 E.01256
;WIDTH:0.418316
G1 X121.501 Y108.253 E.0128
;WIDTH:0.418827
G1 X121.543 Y107.832 E.01296
G1 X121.649 Y107.475 E.01141
;WIDTH:0.420804
G1 X121.893 Y107.04 E.01536
;WIDTH:0.42336
G1 X122.189 Y106.714 E.01365
;WIDTH:0.424112
G1 X122.523 Y106.458 E.01307
G1 X123.025 Y106.23 E.01713
;WIDTH:0.416893
G1 X123.541 Y106.151 E.01591
;WIDTH:0.420043
G1 X125.554 Y106.148 E.06186
;WIDTH:0.466963
G1 X125.564 Y106.148 E.00035
M204 S1000
;WIPE_START
G1 F8640
G1 X125.624 Y106.148 E-.01385
G1 X125.694 Y106.148 E-.01616
G1 X125.718 Y106.243 E-.02262
;WIPE_END
G1 E-.94737 F2100
G1 Z.4 F720
G1 X131.971 Y102.959 F10800
G1 Z.2 F720
M73 Q40 S0
G1 E1 F2100
M204 S800
;WIDTH:0.576549
G1 F1200
M73 P40 R0
G1 X132.047 Y102.965 E.00332
;WIDTH:0.535355
G1 X132.123 Y102.97 E.00306
;WIDTH:0.494161
G1 X132.199 Y102.976 E.0028
;WIDTH:0.452967
G1 X132.276 Y102.981 E.00258
;WIDTH:0.418477
G1 X133.007 Y103.139 E.02289
;WIDTH:0.423461
G1 X133.74 Y103.465 E.02488
;WIDTH:0.425116
G1 X134.381 Y103.935 E.02475
G1 X134.656 Y104.225 E.01245
;WIDTH:0.431806
G1 X134.988 Y104.621 E.01638
G1 X135.282 Y105.097 E.01773
;WIDTH:0.4228
G1 X135.553 Y105.794 E.02315
;WIDTH:0.428237
G1 X135.653 Y106.287 E.01579
G1 X135.69 Y106.869 E.01831
;WIDTH:0.427935
G1 X135.616 Y107.657 E.02483
;WIDTH:0.424426
