; generated by PrusaSlicer 2.7.1+win64 on 2024-01-26 at 16:22:58 UTC


;
;
; 

; external perimeters extrusion width = 0.60mm
; perimeters extrusion width = 0.50mm
; infill extrusion width = 0.50mm
; solid infill extrusion width = 0.50mm
; top infill extrusion width = 0.45mm
; first layer extrusion width = 0.42mm

; external perimeters extrusion width = 0.60mm
; perimeters extrusion width = 0.50mm
; infill extrusion width = 0.50mm
; solid infill extrusion width = 0.50mm
; top infill extrusion width = 0.45mm
; first layer extrusion width = 0.42mm

M73 P0 R70
M73 Q0 S72
M201 X1000 Y1000 Z200 E5000 ; sets maximum accelerations, mm/sec^2
M203 X200 Y200 Z12 E120 ; sets maximum feedrates, mm / sec
M204 S1250 T1250 ; sets acceleration (S) and retract acceleration (R), mm/sec^2
M205 X8.00 Y8.00 Z0.40 E4.50 ; sets the jerk limits, mm/sec
M205 S0 T0 ; sets the minimum extruding and travel feed rate, mm/sec

; printing object ADL5387_housing_base.stl id:0 copy 0
; stop printing object ADL5387_housing_base.stl id:0 copy 0

;TYPE:Custom
M862.3 P "MK3S" ; printer model check
M862.1 P0.4 ; nozzle diameter check
M115 U3.13.1 ; tell printer latest fw version
G90 ; use absolute coordinates
M83 ; extruder relative mode
M104 S250 ; set extruder temp
M140 S90 ; set bed temp
M190 S90 ; wait for bed temp
M109 S250 ; wait for extruder temp
G28 W ; home all without mesh bed level
G80 ; mesh bed leveling

G1 Z0.2 F720
G1 Y-3 F1000 ; go outside print area
G92 E0
G1 X60 E9 F1000 ; intro line
G1 X100 E12.5 F1000 ; intro line

G92 E0
M221 S95

; Don't change E values below. Excessive value can damage the printer.

M907 E538 ; set extruder motor current
G21 ; set units to millimeters
G90 ; use absolute coordinates
M83 ; use relative distances for extrusion
M900 K0.08 ; Filament gcode LA 1.5
M900 K45 ; Filament gcode LA 1.0

M107
;LAYER_CHANGE
;Z:0.2
;HEIGHT:0.2
;BEFORE_LAYER_CHANGE
G92 E0.0
;0.2


G1 E-1 F2100
G1 Z.2 F720
;AFTER_LAYER_CHANGE
;0.2
G1 X75.035 Y60.714 F10800
G1 Z.2 F720
G1 E1 F2100
M204 S800
;TYPE:Skirt/Brim
;WIDTH:0.42
G1 F1200
G1 X76.081 Y59.837 E.04194
G1 X77.021 Y59.643 E.02949
G1 X158.021 Y59.643 E2.4889
G1 X159.328 Y60.035 E.04193
G1 X160.306 Y61.367 E.05078
G1 X174.979 Y112.709 E1.64076
G1 X175.357 Y114.737 E.06339
G1 X175.305 Y116.799 E.06338
G1 X174.979 Y118.332 E.04816
G1 X174.187 Y120.237 E.06339
G1 X173.017 Y121.936 E.06339
G1 X159.662 Y134.74 E.56849
G1 X158.541 Y135.34 E.03907
G1 X91.799 Y150.305 E2.10172
G1 X89.737 Y150.357 E.06338
G1 X87.709 Y149.979 E.06339
G1 X85.804 Y149.187 E.06339
M73 Q0 S71
G1 X84.105 Y148.017 E.06339
G1 X82.436 Y146.188 E.07608
G1 X75.004 Y134.279 E.43134
G1 X74.643 Y133.021 E.04021
G1 X74.643 Y62.021 E2.18163
G1 X75.018 Y60.771 E.0401
M204 S1000
; printing object ADL5387_housing_base.stl id:0 copy 0
;WIPE_START
G1 F8640
G1 X75.035 Y60.714 E-.01373
G1 X76.081 Y59.837 E-.31518
G1 X77.021 Y59.643 E-.22162
G1 X78.968 Y59.643 E-.44947
;WIPE_END
G1 Z.4 F720
G1 X159.942 Y119.594 F10800
G1 Z.2 F720
G1 E1 F2100
M204 S800
;TYPE:Perimeter
;WIDTH:0.419999
G1 F1200
G1 X157.519 Y119.606 E.07445
G1 X156.836 Y119.742 E.0214
G1 X156.339 Y119.946 E.01651
G1 X155.896 Y120.22 E.01601
G1 X155.463 Y120.605 E.0178
G1 X155.077 Y121.107 E.01946
G1 X154.83 Y121.592 E.01672
G1 X154.668 Y122.113 E.01676
G1 X154.594 Y122.799 E.0212
G1 X154.594 Y129.594 E.20879
G1 X119.799 Y129.594 E1.06915
G1 X119.27 Y129.638 E.01631
G1 X118.782 Y129.76 E.01546
G1 X118.286 Y129.974 E.0166
G1 X117.851 Y130.254 E.0159
G1 X117.456 Y130.612 E.01638
G1 X117.003 Y131.233 E.02362
G1 X116.796 Y131.678 E.01508
G1 X116.648 Y132.211 E.017
G1 X116.594 Y132.799 E.01814
G1 X116.594 Y136.594 E.11661
G1 X114.447 Y136.594 E.06597
G1 X114.447 Y132.799 E.11661
G1 X114.393 Y132.211 E.01814
G1 X114.245 Y131.678 E.017
G1 X114.038 Y131.233 E.01508
G1 X113.585 Y130.612 E.02362
G1 X113.19 Y130.254 E.01638
G1 X112.755 Y129.974 E.0159
G1 X112.259 Y129.76 E.0166
G1 X111.741 Y129.633 E.01639
G1 X111.242 Y129.594 E.01538
G1 X97.674 Y129.596 E.41691
G1 X97.128 Y129.665 E.01691
G1 X96.519 Y129.861 E.01966
G1 X95.948 Y130.182 E.02013
G1 X95.493 Y130.573 E.01843
G1 X95.086 Y131.092 E.02027
G1 X94.81 Y131.642 E.01891
G1 X94.637 Y132.276 E.02019
G1 X94.594 Y132.799 E.01612
G1 X94.594 Y134.942 E.06585
G1 X94.266 Y134.704 E.01245
G1 X93.686 Y134.369 E.02058
G1 X92.84 Y133.996 E.02841
G1 X92.337 Y133.845 E.01614
G1 X91.576 Y133.683 E.02391
G1 X91.043 Y133.616 E.01651
G1 X90.52 Y133.613 E.01607
G1 X89.998 Y133.616 E.01604
G1 X89.465 Y133.683 E.01651
G1 X88.704 Y133.845 E.02391
G1 X88.067 Y134.052 E.02058
G1 X87.356 Y134.369 E.02392
G1 X86.775 Y134.703 E.02059
G1 X86.447 Y134.942 E.01247
G1 X86.447 Y132.799 E.06585
G1 X86.404 Y132.276 E.01612
G1 X86.231 Y131.642 E.02019
G1 X85.955 Y131.092 E.01891
G1 X85.548 Y130.573 E.02027
G1 X85.093 Y130.182 E.01843
G1 X84.593 Y129.892 E.01776
G1 X84.026 Y129.691 E.01848
G1 X83.242 Y129.594 E.02427
G1 X80.447 Y129.594 E.08588
G1 X80.447 Y65.447 E1.97106
G1 X154.594 Y65.447 E2.27833
G1 X154.601 Y108.46 E1.32167
G1 X154.701 Y109.062 E.01875
G1 X154.92 Y109.65 E.01928
G1 X155.197 Y110.113 E.01658
G1 X155.584 Y110.559 E.01814
G1 X156.092 Y110.955 E.01979
G1 X156.642 Y111.231 E.01891
G1 X157.276 Y111.404 E.02019
G1 X157.799 Y111.447 E.01612
G1 X159.942 Y111.447 E.06585
G1 X159.704 Y111.775 E.01245
G1 X159.369 Y112.356 E.02061
G1 X158.996 Y113.201 E.02838
G1 X158.845 Y113.704 E.01614
G1 X158.683 Y114.465 E.02391
G1 X158.616 Y114.998 E.01651
G1 X158.613 Y115.521 E.01607
G1 X158.616 Y116.043 E.01604
G1 X158.683 Y116.576 E.01651
G1 X158.845 Y117.337 E.02391
G1 X159.052 Y117.975 E.02061
G1 X159.369 Y118.685 E.02389
G1 X159.703 Y119.266 E.02059
G1 X159.907 Y119.545 E.01062
M204 S1000
G1 X160.734 Y119.971 F10800
M204 S800
G1 F1200
G1 X158 Y119.971 E.08401
G1 X157.338 Y120.009 E.02037
G1 X156.778 Y120.162 E.01784
G1 X156.293 Y120.406 E.01668
G1 X155.845 Y120.755 E.01745
G1 X155.503 Y121.148 E.01601
G1 X155.234 Y121.608 E.01637
G1 X155.037 Y122.193 E.01897
G1 X154.971 Y122.799 E.01873
G1 X154.971 Y129.971 E.22038
G1 X119.799 Y129.971 E1.08074
G1 X119.207 Y130.034 E.01829
M73 P1 R70
G1 X118.722 Y130.184 E.0156
G1 X118.226 Y130.449 E.01728
G1 X117.732 Y130.869 E.01992
G1 X117.332 Y131.417 E.02085
G1 X117.15 Y131.81 E.01331
G1 X117.019 Y132.28 E.01499
G1 X116.971 Y132.799 E.01602
G1 X116.971 Y136.971 E.12819
G1 X114.07 Y136.971 E.08914
M73 Q1 S71
G1 X114.07 Y132.799 E.12819
G1 X114.022 Y132.28 E.01602
G1 X113.891 Y131.81 E.01499
G1 X113.709 Y131.417 E.01331
G1 X113.309 Y130.869 E.02085
G1 X112.815 Y130.449 E.01992
G1 X112.253 Y130.158 E.01945
G1 X111.756 Y130.018 E.01587
G1 X111.242 Y129.971 E.01586
G1 X97.799 Y129.971 E.41307
G1 X97.207 Y130.034 E.01829
G1 X96.67 Y130.206 E.01733
G1 X96.166 Y130.49 E.01778
G1 X95.765 Y130.835 E.01625
G1 X95.406 Y131.293 E.01788
G1 X95.162 Y131.778 E.01668
G1 X95.009 Y132.338 E.01784
G1 X94.971 Y132.799 E.01421
G1 X94.971 Y135.734 E.09018
G1 X94.674 Y135.466 E.01229
G1 X94.044 Y135.009 E.02391
G1 X93.532 Y134.713 E.01817
G1 X92.821 Y134.396 E.02392
G1 X92.259 Y134.214 E.01815
G1 X91.498 Y134.052 E.02391
G1 X90.91 Y133.99 E.01817
G1 X90.131 Y133.99 E.02394
G1 X89.543 Y134.052 E.01817
G1 X88.782 Y134.214 E.02391
G1 X88.22 Y134.396 E.01815
G1 X87.509 Y134.713 E.02392
G1 X86.997 Y135.009 E.01817
G1 X86.367 Y135.466 E.02391
G1 X86.07 Y135.734 E.01229
G1 X86.07 Y133 E.08401
G1 X86.032 Y132.338 E.02037
G1 X85.879 Y131.778 E.01784
G1 X85.635 Y131.293 E.01668
G1 X85.276 Y130.835 E.01788
G1 X84.875 Y130.49 E.01625
G1 X84.434 Y130.234 E.01567
G1 X83.934 Y130.057 E.0163
G1 X83.242 Y129.971 E.02143
G1 X80.07 Y129.971 E.09747
G1 X80.07 Y65.07 E1.99422
G1 X154.971 Y65.07 E2.3015
G1 X154.973 Y108.337 E1.32947
M73 P1 R69
G1 X155.038 Y108.854 E.01601
G1 X155.234 Y109.433 E.01878
G1 X155.503 Y109.893 E.01637
G1 X155.845 Y110.286 E.01601
G1 X156.293 Y110.635 E.01745
G1 X156.778 Y110.879 E.01668
G1 X157.338 Y111.032 E.01784
G1 X157.799 Y111.07 E.01421
G1 X160.734 Y111.07 E.09018
G1 X160.466 Y111.367 E.01229
G1 X160.009 Y111.997 E.02391
G1 X159.713 Y112.509 E.01817
G1 X159.396 Y113.22 E.02392
G1 X159.214 Y113.782 E.01815
G1 X159.052 Y114.543 E.02391
G1 X158.99 Y115.131 E.01817
G1 X158.99 Y115.91 E.02394
G1 X159.052 Y116.498 E.01817
G1 X159.214 Y117.259 E.02391
G1 X159.396 Y117.821 E.01815
G1 X159.713 Y118.532 E.02392
G1 X160.009 Y119.044 E.01817
G1 X160.466 Y119.674 E.02391
G1 X160.694 Y119.926 E.01044
M204 S1000
;WIPE_START
G1 F8640
G1 X160.734 Y119.971 E-.0139
G1 X158 Y119.971 E-.63129
G1 X157.338 Y120.009 E-.15311
G1 X156.778 Y120.162 E-.13404
G1 X156.516 Y120.293 E-.06766
;WIPE_END
G1 Z.4 F720
G1 X161.686 Y120.348 F10800
G1 Z.2 F720
G1 E1 F2100
M204 S800
G1 F1200
G1 X157.585 Y120.357 E.12601
G1 X157.063 Y120.461 E.01635
G1 X156.683 Y120.617 E.01262
G1 X156.215 Y120.929 E.01728
G1 X155.866 Y121.292 E.01547
G1 X155.576 Y121.767 E.0171
G1 X155.405 Y122.274 E.01644
G1 X155.348 Y122.799 E.01623
G1 X155.348 Y130.348 E.23196
G1 X119.799 Y130.348 E1.09232
G1 X119.68 Y130.351 E.00366
G1 X119.134 Y130.44 E.017
G1 X118.642 Y130.638 E.0163
G1 X118.167 Y130.971 E.01782
G1 X117.835 Y131.332 E.01507
G1 X117.503 Y131.942 E.02134
G1 X117.39 Y132.349 E.01298
G1 X117.348 Y132.799 E.01389
G1 X117.348 Y137.348 E.13978
G1 X113.693 Y137.348 E.11231
G1 X113.693 Y132.799 E.13978
G1 X113.651 Y132.349 E.01389
G1 X113.538 Y131.942 E.01298
G1 X113.38 Y131.601 E.01155
G1 X113.034 Y131.127 E.01803
G1 X112.731 Y130.853 E.01255
G1 X112.241 Y130.561 E.01753
G1 X111.755 Y130.402 E.01571
G1 X111.242 Y130.348 E.01585
G1 X97.799 Y130.348 E.41307
G1 X97.501 Y130.366 E.00917
G1 X96.94 Y130.504 E.01775
G1 X96.456 Y130.749 E.01667
G1 X96.036 Y131.097 E.01676
G1 X95.725 Y131.494 E.0155
G1 X95.513 Y131.914 E.01446
G1 X95.381 Y132.399 E.01544
G1 X95.348 Y132.799 E.01233
G1 X95.348 Y136.686 E.11944
G1 X94.833 Y136.114 E.02365
G1 X94.452 Y135.771 E.01575
G1 X93.823 Y135.314 E.02389
G1 X93.379 Y135.058 E.01575
G1 X92.668 Y134.741 E.02392
G1 X92.181 Y134.583 E.01573
G1 X91.419 Y134.421 E.02394
G1 X90.91 Y134.367 E.01573
G1 X90.131 Y134.367 E.02394
G1 X89.622 Y134.421 E.01573
G1 X88.861 Y134.583 E.02391
G1 X88.373 Y134.741 E.01576
G1 X87.662 Y135.057 E.02391
G1 X87.219 Y135.314 E.01574
G1 X86.589 Y135.771 E.02391
G1 X86.208 Y136.114 E.01575
G1 X85.693 Y136.686 E.02365
G1 X85.684 Y132.585 E.12601
G1 X85.58 Y132.063 E.01635
G1 X85.424 Y131.683 E.01262
G1 X85.106 Y131.208 E.01756
G1 X84.735 Y130.855 E.01574
G1 X84.275 Y130.576 E.01653
G1 X83.842 Y130.423 E.01411
G1 X83.242 Y130.348 E.01858
G1 X79.693 Y130.348 E.10905
G1 X79.693 Y64.693 E2.01739
G1 X155.348 Y64.693 E2.32466
G1 X155.354 Y108.409 E1.34327
G1 X155.458 Y108.968 E.01747
G1 X155.681 Y109.475 E.01702
G1 X156.013 Y109.92 E.01706
G1 X156.494 Y110.316 E.01914
G1 X156.914 Y110.528 E.01446
G1 X157.399 Y110.66 E.01544
G1 X157.799 Y110.693 E.01233
G1 X161.686 Y110.693 E.11944
G1 X161.114 Y111.208 E.02365
G1 X160.771 Y111.589 E.01575
G1 X160.314 Y112.218 E.02389
G1 X160.058 Y112.662 E.01575
G1 X159.741 Y113.373 E.02392
G1 X159.583 Y113.861 E.01576
G1 X159.421 Y114.622 E.02391
G1 X159.367 Y115.131 E.01573
G1 X159.367 Y115.91 E.02394
G1 X159.421 Y116.419 E.01573
G1 X159.583 Y117.18 E.02391
G1 X159.741 Y117.668 E.01576
G1 X160.057 Y118.379 E.02391
G1 X160.314 Y118.822 E.01574
G1 X160.771 Y119.452 E.02391
G1 X161.114 Y119.833 E.01575
G1 X161.642 Y120.308 E.02182
M204 S1000
;WIPE_START
G1 F8640
G1 X161.686 Y120.348 E-.01373
G1 X157.585 Y120.357 E-.94693
G1 X157.418 Y120.39 E-.03934
;WIPE_END
G1 Z.4 F720
G1 X162.967 Y120.721 F10800
G1 Z.2 F720
G1 E1 F2100
M204 S800
G1 F1200
G1 X157.618 Y120.733 E.16436
G1 X157.176 Y120.821 E.01385
G1 X156.694 Y121.044 E.01632
G1 X156.287 Y121.379 E.0162
G1 X156.007 Y121.756 E.01443
G1 X155.804 Y122.232 E.0159
G1 X155.725 Y122.799 E.01759
G1 X155.725 Y130.725 E.24354
G1 X119.799 Y130.725 E1.1039
G1 X119.494 Y130.748 E.0094
G1 X119.009 Y130.882 E.01546
G1 X118.539 Y131.152 E.01666
G1 X118.137 Y131.558 E.01756
G1 X117.856 Y132.074 E.01805
G1 X117.76 Y132.418 E.01097
G1 X117.725 Y132.799 E.01176
G1 X117.725 Y137.725 E.15136
G1 X113.316 Y137.725 E.13548
G1 X113.316 Y132.799 E.15136
G1 X113.281 Y132.418 E.01176
G1 X113.185 Y132.074 E.01097
G1 X112.904 Y131.558 E.01805
G1 X112.623 Y131.252 E.01277
G1 X112.221 Y130.971 E.01507
G1 X111.755 Y130.789 E.01537
G1 X111.242 Y130.725 E.01589
G1 X97.799 Y130.725 E.41307
G1 X97.365 Y130.771 E.01341
G1 X96.868 Y130.946 E.01619
G1 X96.465 Y131.212 E.01484
G1 X96.133 Y131.564 E.01487
G1 X95.91 Y131.944 E.01354
G1 X95.753 Y132.461 E.0166
G1 X95.725 Y132.799 E.01042
G1 X95.721 Y137.967 E.1588
G1 X95.328 Y137.295 E.02392
G1 X95.073 Y136.945 E.01331
G1 X94.553 Y136.366 E.02391
G1 X94.231 Y136.076 E.01332
G1 X93.601 Y135.619 E.02391
G1 X93.225 Y135.402 E.01334
G1 X92.514 Y135.085 E.02392
G1 X92.102 Y134.951 E.01331
G1 X91.341 Y134.79 E.0239
G1 X90.91 Y134.744 E.01332
G1 X90.131 Y134.744 E.02394
G1 X89.7 Y134.79 E.01332
G1 X88.939 Y134.951 E.0239
G1 X88.527 Y135.085 E.01331
G1 X87.816 Y135.402 E.02392
G1 X87.44 Y135.619 E.01334
G1 X86.811 Y136.076 E.02389
G1 X86.488 Y136.366 E.01334
G1 X85.968 Y136.945 E.02391
G1 X85.713 Y137.295 E.01331
G1 X85.32 Y137.967 E.02392
G1 X85.308 Y132.618 E.16436
G1 X85.22 Y132.176 E.01385
G1 X84.997 Y131.694 E.01632
G1 X84.653 Y131.279 E.01656
G1 X84.258 Y130.991 E.01502
G1 X83.749 Y130.788 E.01684
G1 X83.242 Y130.725 E.0157
G1 X79.316 Y130.725 E.12063
G1 X79.316 Y64.316 E2.04056
G1 X155.725 Y64.316 E2.34783
M73 Q1 S70
G1 X155.725 Y108.242 E1.34972
M73 P2 R69
G1 X155.758 Y108.611 E.01138
M73 Q2 S70
G1 X155.918 Y109.116 E.01628
G1 X156.164 Y109.517 E.01446
G1 X156.567 Y109.911 E.01732
G1 X156.944 Y110.132 E.01343
G1 X157.461 Y110.288 E.01659
G1 X157.799 Y110.316 E.01042
G1 X162.967 Y110.32 E.1588
G1 X162.295 Y110.713 E.02392
G1 X161.945 Y110.968 E.01331
G1 X161.366 Y111.488 E.02391
G1 X161.076 Y111.81 E.01332
G1 X160.619 Y112.44 E.02391
G1 X160.402 Y112.816 E.01334
G1 X160.085 Y113.527 E.02392
G1 X159.951 Y113.939 E.01331
G1 X159.79 Y114.7 E.0239
G1 X159.744 Y115.131 E.01332
G1 X159.744 Y115.91 E.02394
G1 X159.79 Y116.341 E.01332
G1 X159.951 Y117.102 E.0239
G1 X160.085 Y117.514 E.01331
G1 X160.402 Y118.225 E.02392
G1 X160.619 Y118.601 E.01334
G1 X161.076 Y119.23 E.02389
G1 X161.366 Y119.553 E.01334
G1 X161.945 Y120.073 E.02391
G1 X162.295 Y120.328 E.01331
G1 X162.915 Y120.691 E.02208
M204 S1000
;WIPE_START
G1 F8640
G1 X162.967 Y120.721 E-.01386
G1 X158.696 Y120.731 E-.98614
;WIPE_END
G1 Z.4 F720
G1 X164.556 Y120.975 F10800
G1 Z.2 F720
G1 E1 F2100
M204 S800
;WIDTH:0.673512
G1 F1200
G1 X164.479 Y121 E.00416
;WIDTH:0.624376
G1 X164.402 Y121.025 E.00384
;WIDTH:0.57524
G1 X164.325 Y121.049 E.0035
;WIDTH:0.526104
G1 X164.248 Y121.074 E.00319
;WIDTH:0.476968
G1 X164.17 Y121.098 E.00289
;WIDTH:0.427831
G1 X163.392 Y121.102 E.0244
;WIDTH:0.419999
G1 X158.779 Y121.102 E.14174
G1 X157.522 Y121.125 E.03863
G1 X157.026 Y121.288 E.01604
G1 X156.627 Y121.572 E.01505
G1 X156.358 Y121.903 E.01311
G1 X156.167 Y122.335 E.01451
G1 X156.102 Y122.799 E.0144
G1 X156.102 Y131.102 E.25513
G1 X119.799 Y131.102 E1.11549
G1 X119.398 Y131.15 E.01241
G1 X118.931 Y131.341 E.0155
G1 X118.559 Y131.641 E.01468
G1 X118.319 Y131.97 E.01251
G1 X118.131 Y132.488 E.01693
G1 X118.102 Y132.799 E.0096
G1 X118.102 Y138.102 E.16295
G1 X112.939 Y138.102 E.15864
G1 X112.939 Y132.799 E.16295
G1 X112.91 Y132.488 E.0096
G1 X112.722 Y131.97 E.01693
G1 X112.482 Y131.641 E.01251
G1 X112.11 Y131.341 E.01468
G1 X111.726 Y131.173 E.01288
G1 X111.242 Y131.102 E.01503
G1 X97.799 Y131.102 E.41307
G1 X97.519 Y131.125 E.00863
G1 X97.038 Y131.283 E.01556
G1 X96.645 Y131.555 E.01469
G1 X96.363 Y131.895 E.01357
G1 X96.181 Y132.289 E.01334
G1 X96.102 Y132.799 E.01586
G1 X96.102 Y138.392 E.17186
;WIDTH:0.427895
G1 X96.098 Y139.171 E.02444
;WIDTH:0.477016
G1 X96.074 Y139.248 E.00285
;WIDTH:0.526137
G1 X96.049 Y139.325 E.00319
;WIDTH:0.575258
G1 X96.025 Y139.402 E.0035
;WIDTH:0.624379
G1 X96 Y139.479 E.00384
;WIDTH:0.6735
G1 X95.975 Y139.556 E.00416
G1 X95.936 Y139.489 E.00398
;WIDTH:0.624379
G1 X95.897 Y139.422 E.00367
;WIDTH:0.575258
G1 X95.858 Y139.355 E.00336
;WIDTH:0.526137
