; generated by PrusaSlicer 2.7.1+win64 on 2024-01-26 at 16:21:29 UTC


;
;
; 

; external perimeters extrusion width = 0.60mm
; perimeters extrusion width = 0.50mm
; infill extrusion width = 0.50mm
; solid infill extrusion width = 0.50mm
; top infill extrusion width = 0.45mm
; first layer extrusion width = 0.42mm

; external perimeters extrusion width = 0.60mm
; perimeters extrusion width = 0.50mm
; infill extrusion width = 0.50mm
; solid infill extrusion width = 0.50mm
; top infill extrusion width = 0.45mm
; first layer extrusion width = 0.42mm

M73 P0 R48
M73 Q0 S49
M201 X1000 Y1000 Z200 E5000 ; sets maximum accelerations, mm/sec^2
M203 X200 Y200 Z12 E120 ; sets maximum feedrates, mm / sec
M204 S1250 T1250 ; sets acceleration (S) and retract acceleration (R), mm/sec^2
M205 X8.00 Y8.00 Z0.40 E4.50 ; sets the jerk limits, mm/sec
M205 S0 T0 ; sets the minimum extruding and travel feed rate, mm/sec

; printing object ADL5387_housing_cover.stl id:1 copy 0
; stop printing object ADL5387_housing_cover.stl id:1 copy 0

;TYPE:Custom
M862.3 P "MK3S" ; printer model check
M862.1 P0.4 ; nozzle diameter check
M115 U3.13.1 ; tell printer latest fw version
G90 ; use absolute coordinates
M83 ; extruder relative mode
M104 S250 ; set extruder temp
M140 S90 ; set bed temp
M190 S90 ; wait for bed temp
M109 S250 ; wait for extruder temp
G28 W ; home all without mesh bed level
G80 ; mesh bed leveling

G1 Z0.2 F720
G1 Y-3 F1000 ; go outside print area
G92 E0
G1 X60 E9 F1000 ; intro line
G1 X100 E12.5 F1000 ; intro line

G92 E0
M221 S95

; Don't change E values below. Excessive value can damage the printer.

M907 E538 ; set extruder motor current
G21 ; set units to millimeters
G90 ; use absolute coordinates
M83 ; use relative distances for extrusion
M900 K0.08 ; Filament gcode LA 1.5
M900 K45 ; Filament gcode LA 1.0

M107
;LAYER_CHANGE
;Z:0.2
;HEIGHT:0.2
;BEFORE_LAYER_CHANGE
G92 E0.0
;0.2


G1 E-1 F2100
G1 Z.2 F720
;AFTER_LAYER_CHANGE
;0.2
G1 X82.519 Y68.188 F10800
G1 Z.2 F720
G1 E1 F2100
M204 S800
;TYPE:Skirt/Brim
;WIDTH:0.42
G1 F1200
G1 X83.565 Y67.312 E.04192
G1 X84.505 Y67.118 E.02949
G1 X165.505 Y67.118 E2.4889
G1 X166.812 Y67.509 E.04192
G1 X167.688 Y68.555 E.04192
G1 X167.882 Y69.495 E.02949
G1 X167.882 Y140.495 E2.18163
G1 X167.491 Y141.802 E.04192
G1 X166.445 Y142.678 E.04192
G1 X165.505 Y142.872 E.02949
G1 X84.505 Y142.872 E2.4889
G1 X83.198 Y142.481 E.04192
G1 X82.322 Y141.435 E.04192
G1 X82.128 Y140.495 E.02949
G1 X82.128 Y69.495 E2.18163
G1 X82.502 Y68.245 E.04009
M204 S1000
; printing object ADL5387_housing_cover.stl id:1 copy 0
;WIPE_START
G1 F8640
G1 X82.519 Y68.188 E-.01373
G1 X83.565 Y67.312 E-.31504
G1 X84.505 Y67.118 E-.22162
G1 X86.452 Y67.118 E-.44961
;WIPE_END
G1 Z.4 F720
G1 X89.561 Y108.338 F10800
G1 Z.2 F720
G1 E1 F2100
M204 S800
;TYPE:External perimeter
;WIDTH:0.542411
G1 F1200
G1 X89.771 Y108.272 E.00896
;WIDTH:0.546209
G1 X90.502 Y108.268 E.02998
G1 X90.502 Y108.521 E.01038
G1 X90.502 Y108.775 E.01042
G1 X89.666 Y108.751 E.0343
;WIDTH:0.542411
G1 X89.519 Y108.657 E.0071
G1 X89.472 Y108.549 E.00479
G1 X89.538 Y108.394 E.00686
M204 S1000
;WIPE_START
G1 F8640
G1 X89.561 Y108.338 E-.01398
G1 X89.771 Y108.272 E-.05083
;WIPE_END
G1 E-.93519 F2100
G1 Z.4 F720
G1 X131.568 Y137.6 F10800
G1 Z.2 F720
G1 E1 F2100
M204 S800
;WIDTH:0.419999
G1 F1200
G1 X131.577 Y137.322 E.00855
G1 X131.699 Y137.195 E.00541
G1 X132.001 Y137.129 E.0095
G1 X132.565 Y137.129 E.01733
G1 X132.565 Y137.485 E.01094
G1 X132.565 Y137.84 E.01091
G1 X131.854 Y137.821 E.02185
G1 X131.643 Y137.747 E.00687
G1 X131.595 Y137.653 E.00324
M204 S1000
G1 X132.023 Y137.484 F10800
M204 S800
;TYPE:Perimeter
;WIDTH:0.37696
G1 F1200
G1 X132.209 Y137.485 E.00506
M204 S1000
;WIPE_START
G1 F8640
G1 X132.023 Y137.484 E-.04295
;WIPE_END
G1 E-.95705 F2100
G1 Z.4 F720
G1 X128.796 Y136.507 F10800
G1 Z.2 F720
G1 E1 F2100
M204 S800
;WIDTH:0.419999
G1 F1200
G1 X128.906 Y136.398 E.00476
G1 X129.159 Y136.367 E.00783
G1 X129.35 Y136.438 E.00626
G1 X129.5 Y136.646 E.00788
G1 X129.533 Y137.001 E.01096
G1 X129.501 Y137.235 E.00726
G1 X129.365 Y137.419 E.00703
G1 X129.105 Y137.491 E.00829
G1 X128.851 Y137.418 E.00812
G1 X128.747 Y137.29 E.00507
G1 X128.682 Y137.002 E.00907
G1 X128.703 Y136.723 E.0086
G1 X128.759 Y136.553 E.0055
M204 S1000
G1 X128.508 Y136.218 F10800
M204 S800
;TYPE:External perimeter
G1 F1200
G1 X128.76 Y136.039 E.0095
G1 X129.026 Y135.994 E.00829
G1 X129.451 Y136.045 E.01315
G1 X129.701 Y136.227 E.0095
G1 X129.864 Y136.525 E.01044
G1 X129.906 Y137.053 E.01628
G1 X129.864 Y137.357 E.00943
G1 X129.706 Y137.641 E.00999
G1 X129.46 Y137.813 E.00922
G1 X129.105 Y137.874 E.01107
G1 X128.754 Y137.812 E.01095
G1 X128.509 Y137.638 E.00923
G1 X128.35 Y137.352 E.01005
G1 X128.308 Y137.05 E.00937
G1 X128.35 Y136.511 E.01661
G1 X128.48 Y136.271 E.00839
M204 S1000
;WIPE_START
G1 F8640
G1 X128.508 Y136.218 E-.01384
G1 X128.76 Y136.039 E-.07137
G1 X129.026 Y135.994 E-.06229
G1 X129.451 Y136.045 E-.09884
G1 X129.701 Y136.227 E-.0714
G1 X129.864 Y136.525 E-.07843
G1 X129.906 Y137.053 E-.1223
G1 X129.864 Y137.357 E-.07086
G1 X129.706 Y137.641 E-.07504
G1 X129.46 Y137.813 E-.06931
G1 X129.105 Y137.874 E-.08317
G1 X128.754 Y137.812 E-.0823
G1 X128.509 Y137.638 E-.06939
G1 X128.443 Y137.519 E-.03146
;WIPE_END
G1 Z.4 F720
G1 X119.77 Y137.521 F10800
G1 Z.2 F720
G1 E1 F2100
M204 S800
;WIDTH:0.546209
G1 F1200
G1 X119.77 Y137.775 E.01042
G1 X118.934 Y137.751 E.0343
;WIDTH:0.542411
G1 X118.787 Y137.657 E.0071
G1 X118.74 Y137.549 E.00479
G1 X118.829 Y137.338 E.00932
G1 X119.039 Y137.272 E.00896
;WIDTH:0.546209
G1 X119.77 Y137.268 E.02998
G1 X119.77 Y137.461 E.00792
M204 S1000
;WIPE_START
G1 F8640
G1 X119.77 Y137.521 E-.01385
G1 X119.77 Y137.775 E-.05865
G1 X118.934 Y137.751 E-.19311
;WIPE_END
G1 E-.73439 F2100
G1 Z.4 F720
G1 X123.652 Y108.05 F10800
G1 Z.2 F720
G1 E1 F2100
M204 S800
;TYPE:Perimeter
;WIDTH:0.469231
G1 F1200
G1 X123.652 Y108.199 E.00518
G1 X123.642 Y108.318 E.00415
G1 X123.549 Y108.455 E.00575
G1 X123.387 Y108.485 E.00572
G1 X123.254 Y108.394 E.0056
G1 X123.222 Y108.221 E.00611
G1 X123.325 Y108.081 E.00604
G1 X123.592 Y108.055 E.00932
M204 S1000
G1 X124.053 Y107.648 F10800
M204 S800
;WIDTH:0.419999
G1 F1200
G1 X124.053 Y108.199 E.01693
G1 X124.042 Y108.354 E.00477
G1 X123.954 Y108.608 E.00826
G1 X123.719 Y108.823 E.00979
G1 X123.432 Y108.893 E.00908
G1 X123.146 Y108.823 E.00905
G1 X122.943 Y108.649 E.00822
G1 X122.827 Y108.407 E.00825
G1 X122.842 Y108.083 E.00997
G1 X122.957 Y107.878 E.00722
G1 X123.194 Y107.695 E.0092
G1 X123.478 Y107.648 E.00885
G1 X123.993 Y107.648 E.01582
M204 S1000
G1 X124.43 Y107.271 F10800
M204 S800
G1 F1200
G1 X124.43 Y108.199 E.02851
G1 X124.357 Y108.656 E.01422
G1 X124.138 Y108.978 E.01197
G1 X123.815 Y109.2 E.01204
G1 X123.432 Y109.271 E.01197
G1 X123.048 Y109.2 E.012
G1 X122.726 Y108.978 E.01202
G1 X122.507 Y108.656 E.01197
G1 X122.436 Y108.27 E.01206
G1 X122.507 Y107.886 E.012
G1 X122.725 Y107.567 E.01187
G1 X123.048 Y107.345 E.01204
G1 X123.46 Y107.271 E.01286
G1 X124.37 Y107.271 E.02796
M204 S1000
G1 X124.807 Y106.894 F10800
M204 S800
;TYPE:External perimeter
G1 F1200
G1 X124.807 Y108.199 E.0401
G1 X124.745 Y108.672 E.01466
G1 X124.584 Y109.03 E.01206
G1 X124.308 Y109.328 E.01248
G1 X123.961 Y109.55 E.01266
G1 X123.584 Y109.636 E.01188
G1 X123.153 Y109.624 E.01325
G1 X122.786 Y109.486 E.01205
G1 X122.458 Y109.245 E.01251
G1 X122.22 Y108.917 E.01245
G1 X122.083 Y108.549 E.01207
G1 X122.068 Y108.146 E.01239
G1 X122.156 Y107.741 E.01273
G1 X122.36 Y107.416 E.01179
G1 X122.673 Y107.119 E.01326
G1 X123.03 Y106.957 E.01205
G1 X123.443 Y106.894 E.01284
G1 X124.747 Y106.894 E.04007
M204 S1000
;WIPE_START
G1 F8640
G1 X124.807 Y106.894 E-.01385
G1 X124.807 Y108.199 E-.30133
G1 X124.745 Y108.672 E-.11015
G1 X124.584 Y109.03 E-.09064
G1 X124.308 Y109.328 E-.09379
G1 X123.961 Y109.55 E-.09512
G1 X123.584 Y109.636 E-.08929
G1 X123.153 Y109.624 E-.09956
G1 X122.786 Y109.486 E-.09053
G1 X122.731 Y109.446 E-.01574
;WIPE_END
G1 Z.4 F720
G1 X130.443 Y107.295 F10800
G1 Z.2 F720
G1 E1 F2100
M204 S800
;TYPE:Perimeter
;WIDTH:0.511342
G1 F1200
G1 X130.778 Y107.437 E.01389
;WIDTH:0.514265
G1 X131.272 Y107.559 E.01954
;WIDTH:0.527021
G1 X131.797 Y107.577 E.02072
G1 X132.314 Y107.468 E.02084
;WIDTH:0.511425
G1 X132.749 Y107.292 E.01791
G1 X132.463 Y107.729 E.01994
G1 X132.066 Y108.004 E.01844
;WIDTH:0.535728
G1 X131.618 Y108.075 E.01822
G1 X131.178 Y108.019 E.01781
;WIDTH:0.514265
G1 X130.913 Y107.886 E.01139
;WIDTH:0.511342
G1 X130.558 Y107.53 E.01919
G1 X130.47 Y107.349 E.00768
M204 S1000
;WIPE_START
G1 F8640
G1 X130.443 Y107.295 E-.01394
G1 X130.778 Y107.437 E-.08401
;WIPE_END
G1 E-.90205 F2100
G1 Z.4 F720
G1 X130.012 Y106.406 F10800
G1 Z.2 F720
G1 E1 F2100
M204 S800
;WIDTH:0.419999
G1 F1200
G1 X130.389 Y106.763 E.01595
G1 X130.806 Y107 E.01474
G1 X131.321 Y107.137 E.01637
G1 X131.881 Y107.136 E.01721
G1 X132.376 Y107.005 E.01573
G1 X132.904 Y106.688 E.01892
G1 X133.178 Y106.396 E.0123
G1 X133.225 Y106.566 E.00542
G1 X133.247 Y106.869 E.00933
G1 X133.169 Y107.366 E.01546
G1 X133.01 Y107.717 E.01184
G1 X132.803 Y107.981 E.01031
M73 Q1 S49
G1 X132.44 Y108.282 E.01449
M73 P1 R48
G1 X132.005 Y108.463 E.01448
G1 X131.534 Y108.508 E.01454
G1 X131.057 Y108.425 E.01488
G1 X130.691 Y108.251 E.01245
G1 X130.322 Y107.907 E.0155
G1 X130.087 Y107.551 E.01311
G1 X129.975 Y107.185 E.01176
G1 X129.953 Y106.68 E.01553
G1 X129.999 Y106.465 E.00676
M204 S1000
G1 X130.133 Y105.894 F10800
M204 S800
G1 F1200
G1 X130.218 Y106.067 E.00592
G1 X130.44 Y106.321 E.01037
G1 X130.851 Y106.608 E.0154
G1 X131.267 Y106.746 E.01347
G1 X131.748 Y106.771 E.0148
G1 X132.236 Y106.655 E.01541
G1 X132.663 Y106.398 E.01531
G1 X132.992 Y106.032 E.01512
G1 X133.19 Y105.611 E.0143
G1 X133.466 Y106.064 E.0163
G1 X133.601 Y106.535 E.01506
G1 X133.623 Y106.801 E.0082
G1 X133.602 Y107.134 E.01025
G1 X133.53 Y107.473 E.01065
G1 X133.342 Y107.896 E.01422
G1 X133.087 Y108.229 E.01289
G1 X132.708 Y108.566 E.01558
G1 X132.217 Y108.793 E.01662
G1 X131.751 Y108.878 E.01456
G1 X131.343 Y108.869 E.01254
G1 X130.813 Y108.746 E.01672
G1 X130.402 Y108.501 E.0147
G1 X130.032 Y108.148 E.01571
G1 X129.756 Y107.731 E.01537
G1 X129.588 Y107.201 E.01708
G1 X129.574 Y106.626 E.01767
G1 X129.702 Y106.116 E.01616
G1 X129.994 Y105.611 E.01792
G1 X130.106 Y105.84 E.00783
M204 S1000
G1 X130.485 Y105.77 F10800
M204 S800
G1 F1200
G1 X130.681 Y106.027 E.00993
G1 X130.971 Y106.242 E.01109
G1 X131.311 Y106.368 E.01114
G1 X131.621 Y106.395 E.00956
G1 X132.019 Y106.329 E.0124
G1 X132.354 Y106.156 E.01159
G1 X132.675 Y105.824 E.01419
G1 X132.864 Y105.4 E.01426
G1 X132.899 Y104.837 E.01733
G1 X133.112 Y104.979 E.00787
G1 X133.538 Y105.43 E.01906
G1 X133.833 Y105.946 E.01826
G1 X133.977 Y106.503 E.01768
G1 X133.999 Y106.77 E.00823
G1 X133.977 Y107.169 E.01228
G1 X133.866 Y107.666 E.01565
G1 X133.673 Y108.076 E.01392
M73 Q1 S48
G1 X133.383 Y108.463 E.01486
G1 X133.056 Y108.766 E.0137
G1 X132.648 Y109.027 E.01488
G1 X132.22 Y109.186 E.01403
G1 X131.786 Y109.254 E.0135
G1 X131.308 Y109.245 E.01469
G1 X130.842 Y109.148 E.01463
G1 X130.387 Y108.945 E.01531
G1 X129.982 Y108.643 E.01552
G1 X129.653 Y108.282 E.01501
G1 X129.359 Y107.79 E.01761
G1 X129.212 Y107.256 E.01702
G1 X129.196 Y106.588 E.02053
G1 X129.326 Y106.02 E.0179
G1 X129.581 Y105.534 E.01686
G1 X129.881 Y105.156 E.01483
G1 X130.282 Y104.831 E.01586
G1 X130.304 Y105.296 E.0143
G1 X130.44 Y105.712 E.01345
G1 X130.448 Y105.722 E.00039
M204 S1000
G1 X130.785 Y105.558 F10800
M204 S800
;TYPE:External perimeter
G1 F1200
G1 X131.006 Y105.815 E.01042
G1 X131.326 Y105.979 E.01105
G1 X131.628 Y106.018 E.00936
G1 X131.924 Y105.964 E.00925
G1 X132.099 Y105.87 E.0061
G1 X132.388 Y105.579 E.0126
G1 X132.519 Y105.215 E.01189
G1 X132.525 Y104.24 E.02996
G1 X132.883 Y104.373 E.01173
G1 X133.357 Y104.689 E.0175
G1 X133.843 Y105.204 E.02176
G1 X134.121 Y105.689 E.01718
G1 X134.235 Y105.98 E.0096
G1 X134.353 Y106.472 E.01555
G1 X134.385 Y106.856 E.01184
G1 X134.333 Y107.419 E.01737
G1 X134.181 Y107.93 E.01638
G1 X133.928 Y108.398 E.01635
G1 X133.567 Y108.832 E.01735
G1 X133.133 Y109.193 E.01735
G1 X132.665 Y109.447 E.01636
G1 X132.156 Y109.599 E.01632
G1 X131.596 Y109.65 E.01728
G1 X131.034 Y109.599 E.01734
G1 X130.523 Y109.446 E.01639
G1 X130.054 Y109.193 E.01637
G1 X129.62 Y108.832 E.01735
G1 X129.259 Y108.398 E.01735
G1 X129.007 Y107.931 E.01631
G1 X128.836 Y107.311 E.01976
G1 X128.818 Y106.549 E.02342
G1 X128.97 Y105.888 E.02084
G1 X129.247 Y105.359 E.01835
G1 X129.577 Y104.932 E.01658
G1 X129.952 Y104.596 E.01547
G1 X130.373 Y104.34 E.01514
G1 X130.659 Y104.236 E.00935
G1 X130.677 Y105.245 E.03101
G1 X130.765 Y105.502 E.00835
M204 S1000
;WIPE_START
G1 F8640
G1 X130.785 Y105.558 E-.01373
G1 X131.006 Y105.815 E-.07827
G1 X131.326 Y105.979 E-.08303
G1 X131.628 Y106.018 E-.07031
G1 X131.924 Y105.964 E-.06948
G1 X132.099 Y105.87 E-.04587
G1 X132.388 Y105.579 E-.0947
G1 X132.519 Y105.215 E-.08933
G1 X132.525 Y104.24 E-.22513
G1 X132.883 Y104.373 E-.08818
G1 X133.357 Y104.689 E-.13154
G1 X133.388 Y104.722 E-.01043
;WIPE_END
G1 Z.4 F720
G1 X128.634 Y97.456 F10800
G1 Z.2 F720
G1 E1 F2100
M204 S800
;WIDTH:0.38292
G1 F1200
G1 X128.964 Y97.294 E.01019
;WIDTH:0.394568
G1 X129.449 Y97.24 E.01398
;WIDTH:0.396798
G1 X129.701 Y97.268 E.00731
G1 X130.116 Y97.439 E.01294
;WIDTH:0.396258
G1 X130.459 Y97.805 E.01444
G1 X130.575 Y98.026 E.00719
;WIDTH:0.38972
G1 X130.636 Y98.52 E.01407
G1 X130.518 Y98.98 E.01342
;WIDTH:0.38292
G1 X130.206 Y99.364 E.01371
;WIDTH:0.387206
G1 X129.778 Y99.589 E.01357
G1 X129.273 Y99.636 E.01423
;WIDTH:0.38292
G1 X128.721 Y99.483 E.01587
G1 X128.644 Y99.438 E.00247
M204 S1000
G1 X128.524 Y98.692 F10800
M204 S800
;WIDTH:0.471832
G1 F1200
G1 X128.49 Y99.044 E.01236
G1 X128.554 Y99.283 E.00865
G1 X128.355 Y98.864 E.01621
G1 X128.275 Y98.431 E.01539
G1 X128.346 Y98.04 E.01389
G1 X128.499 Y97.751 E.01143
G1 X128.512 Y98.157 E.0142
G1 X128.589 Y98.244 E.00406
G1 X128.686 Y98.277 E.00358
G1 X128.863 Y98.199 E.00676
;WIDTH:0.445916
G1 X129.04 Y98.121 E.00635
;WIDTH:0.419999
G1 X129.294 Y98.089 E.00787
G1 X129.509 Y98.15 E.00687
G1 X129.599 Y98.288 E.00506
G1 X129.598 Y98.589 E.00925
G1 X129.475 Y98.749 E.0062
G1 X129.191 Y98.794 E.00884
;WIDTH:0.445916
G1 X128.939 Y98.693 E.00892
;WIDTH:0.471832
G1 X128.686 Y98.593 E.00951
G1 X128.575 Y98.66 E.00453
M204 S1000
;WIPE_START
G1 F8640
G1 X128.524 Y98.692 E-.0139
G1 X128.49 Y99.044 E-.08166
G1 X128.554 Y99.283 E-.05713
G1 X128.355 Y98.864 E-.10711
G1 X128.275 Y98.431 E-.10167
G1 X128.346 Y98.04 E-.09176
G1 X128.499 Y97.751 E-.07551
;WIPE_END
G1 E-.47126 F2100
G1 Z.4 F720
G1 X121.144 Y73.423 F10800
G1 Z.2 F720
G1 E1 F2100
M204 S800
;TYPE:Perimeter
;WIDTH:0.419999
G1 F1200
G1 X121.13 Y73.418 E.00046
G1 X121.026 Y73.29 E.00507
G1 X120.961 Y73.002 E.00907
G1 X120.982 Y72.723 E.0086
G1 X121.042 Y72.541 E.00589
G1 X121.185 Y72.398 E.00621
G1 X121.438 Y72.367 E.00783
G1 X121.629 Y72.438 E.00626
G1 X121.779 Y72.646 E.00788
G1 X121.812 Y73.001 E.01096
G1 X121.78 Y73.235 E.00726
G1 X121.644 Y73.419 E.00703
G1 X121.385 Y73.491 E.00826
G1 X121.202 Y73.439 E.00585
M204 S1000
G1 X121.033 Y73.812 F10800
M204 S800
;TYPE:External perimeter
G1 F1200
G1 X120.788 Y73.638 E.00923
G1 X120.63 Y73.352 E.01004
G1 X120.587 Y73.05 E.00937
G1 X120.63 Y72.511 E.01661
G1 X120.787 Y72.218 E.01021
G1 X121.04 Y72.039 E.00952
G1 X121.305 Y71.994 E.00826
G1 X121.73 Y72.045 E.01315
G1 X121.98 Y72.227 E.0095
G1 X122.143 Y72.525 E.01044
G1 X122.186 Y73.053 E.01628
G1 X122.143 Y73.357 E.00943
G1 X121.985 Y73.641 E.00999
G1 X121.739 Y73.813 E.00922
G1 X121.384 Y73.874 E.01107
G1 X121.092 Y73.823 E.00911
M204 S1000
;WIPE_START
G1 F8640
G1 X121.033 Y73.812 E-.01386
G1 X120.788 Y73.638 E-.06939
G1 X120.63 Y73.352 E-.07545
G1 X120.587 Y73.05 E-.07044
G1 X120.63 Y72.511 E-.12485
G1 X120.787 Y72.218 E-.07675
G1 X121.04 Y72.039 E-.07156
G1 X121.305 Y71.994 E-.06207
G1 X121.73 Y72.045 E-.09884
G1 X121.98 Y72.227 E-.0714
G1 X122.143 Y72.525 E-.07843
G1 X122.186 Y73.053 E-.12232
G1 X122.147 Y73.33 E-.06464
;WIPE_END
G1 Z.4 F720
G1 X113.755 Y73.423 F10800
G1 Z.2 F720
G1 E1 F2100
M204 S800
