; generated by PrusaSlicer 2.7.1+win64 on 2024-02-08 at 17:09:52 UTC


;
;
; 

; external perimeters extrusion width = 0.60mm
; perimeters extrusion width = 0.50mm
; infill extrusion width = 0.50mm
; solid infill extrusion width = 0.50mm
; top infill extrusion width = 0.45mm
; first layer extrusion width = 0.42mm

; external perimeters extrusion width = 0.60mm
; perimeters extrusion width = 0.50mm
; infill extrusion width = 0.50mm
; solid infill extrusion width = 0.50mm
; top infill extrusion width = 0.45mm
; first layer extrusion width = 0.42mm

M73 P0 R57
M73 Q0 S58
M201 X1000 Y1000 Z200 E5000 ; sets maximum accelerations, mm/sec^2
M203 X200 Y200 Z12 E120 ; sets maximum feedrates, mm / sec
M204 S1250 T1250 ; sets acceleration (S) and retract acceleration (R), mm/sec^2
M205 X8.00 Y8.00 Z0.40 E4.50 ; sets the jerk limits, mm/sec
M205 S0 T0 ; sets the minimum extruding and travel feed rate, mm/sec

; printing object fiber_strain_relief_125+1.8.stl id:0 copy 0
; stop printing object fiber_strain_relief_125+1.8.stl id:0 copy 0

;TYPE:Custom
M862.3 P "MK3S" ; printer model check
M862.1 P0.4 ; nozzle diameter check
M115 U3.13.1 ; tell printer latest fw version
G90 ; use absolute coordinates
M83 ; extruder relative mode
M104 S230 ; set extruder temp
M140 S85 ; set bed temp
M190 S85 ; wait for bed temp
M109 S230 ; wait for extruder temp
G28 W ; home all without mesh bed level
G80 ; mesh bed leveling

G1 Z0.2 F720
G1 Y-3 F1000 ; go outside print area
G92 E0
G1 X60 E9 F1000 ; intro line
G1 X100 E12.5 F1000 ; intro line

G92 E0
M221 S95

; Don't change E values below. Excessive value can damage the printer.

M907 E538 ; set extruder motor current
G21 ; set units to millimeters
G90 ; use absolute coordinates
M83 ; use relative distances for extrusion
M900 K0.08 ; Filament gcode LA 1.5
M900 K45 ; Filament gcode LA 1.0

M107
;LAYER_CHANGE
;Z:0.2
;HEIGHT:0.2
;BEFORE_LAYER_CHANGE
G92 E0.0
;0.2


G1 E-1 F2100
G1 Z.2 F720
;AFTER_LAYER_CHANGE
;0.2
G1 X55.285 Y96.317 F10800
G1 Z.2 F720
G1 E1 F2100
M204 S800
;TYPE:Skirt/Brim
;WIDTH:0.42
G1 F1200
G1 X56.011 Y96.133 E.02348
G1 X188.561 Y84.133 E4.17301
G1 X193.775 Y84.123 E.16348
G1 X195.082 Y84.514 E.04277
G1 X195.958 Y85.56 E.04278
G1 X196.152 Y86.5 E.03009
G1 X196.152 Y123.5 E1.16011
G1 X195.761 Y124.807 E.04277
G1 X194.715 Y125.683 E.04278
G1 X193.775 Y125.877 E.03009
G1 X188.572 Y125.868 E.16314
G1 X56.022 Y114.518 E4.17122
G1 X54.753 Y114.017 E.04278
M73 Q0 S57
G1 X53.969 Y112.9 E.04279
G1 X53.848 Y112.15 E.02382
G1 X53.848 Y98.5 E.42799
G1 X54.239 Y97.193 E.04277
G1 X55.239 Y96.355 E.04091
M204 S1000
; printing object fiber_strain_relief_125+1.8.stl id:0 copy 0
;WIPE_START
G1 F8640
G1 X55.285 Y96.317 E-.01378
G1 X56.011 Y96.133 E-.17294
G1 X59.519 Y95.815 E-.81328
;WIPE_END
G1 Z.4 F720
G1 X59.039 Y104.934 F10800
G1 Z.2 F720
G1 E1 F2100
M204 S800
;TYPE:Perimeter
;WIDTH:0.419999
G1 F1200
G1 X67.523 Y104.934 E.26601
G1 X67.736 Y105.1 E.00847
G1 X68.366 Y105.328 E.02101
G1 X68.658 Y105.374 E.00927
G1 X69.22 Y105.32 E.0177
G1 X69.593 Y105.199 E.0123
G1 X70.037 Y104.934 E.01621
G1 X86.856 Y104.934 E.52735
G1 X87.198 Y104.87 E.01091
G1 X87.477 Y104.701 E.01023
G1 X87.662 Y104.48 E.00904
G1 X87.761 Y104.254 E.00774
G1 X87.797 Y104.051 E.00646
G1 X87.83 Y103.5 E.01731
G1 X87.798 Y102.974 E.01652
G1 X87.696 Y102.398 E.01834
G1 X87.522 Y101.839 E.01836
G1 X87.279 Y101.306 E.01837
G1 X86.972 Y100.807 E.01837
G1 X86.605 Y100.351 E.01835
G1 X86.183 Y99.945 E.01836
G1 X85.809 Y99.664 E.01467
G1 X188.775 Y99.664 E3.22842
G1 X189.166 Y99.649 E.01227
M73 P0 R56
G1 X189.562 Y99.476 E.01355
G1 X189.751 Y99.287 E.00838
G1 X189.888 Y99.027 E.00921
G1 X189.939 Y98.721 E.00973
G1 X189.939 Y96.914 E.05666
G1 X192.611 Y96.914 E.08378
G1 X192.611 Y98.25 E.04189
G1 X192.611 Y122.336 E.7552
G1 X189.939 Y122.336 E.08378
G1 X189.939 Y108.279 E.44075
G1 X189.888 Y107.973 E.00973
G1 X189.751 Y107.713 E.00921
G1 X189.562 Y107.524 E.00838
G1 X189.359 Y107.408 E.00733
G1 X188.996 Y107.336 E.0116
G1 X59.039 Y107.336 E4.0747
G1 X59.039 Y104.994 E.07343
M73 P1 R56
M73 Q1 S57
M204 S1000
G1 X58.662 Y104.557 F10800
M204 S800
G1 F1200
G1 X67.666 Y104.557 E.28231
G1 X67.837 Y104.71 E.00719
G1 X68.039 Y104.825 E.00729
G1 X68.658 Y104.997 E.02014
G1 X69.181 Y104.945 E.01648
G1 X69.405 Y104.873 E.00738
G1 X69.91 Y104.557 E.01868
G1 X86.856 Y104.557 E.53133
G1 X86.954 Y104.549 E.00308
G1 X87.228 Y104.417 E.00954
G1 X87.34 Y104.284 E.00545
G1 X87.42 Y104.027 E.00844
G1 X87.451 Y103.464 E.01768
G1 X87.413 Y102.928 E.01685
G1 X87.308 Y102.4 E.01688
G1 X87.137 Y101.889 E.0169
G1 X86.904 Y101.404 E.01687
G1 X86.612 Y100.952 E.01687
G1 X86.265 Y100.54 E.01689
G1 X85.87 Y100.175 E.01686
G1 X85.432 Y99.862 E.01688
G1 X84.958 Y99.606 E.01689
G1 X84.456 Y99.412 E.01687
G1 X83.933 Y99.285 E.01687
G1 X188.775 Y99.287 E3.28724
G1 X189.098 Y99.278 E.01013
G1 X189.336 Y99.174 E.00814
G1 X189.531 Y98.905 E.01042
G1 X189.562 Y98.721 E.00585
G1 X189.562 Y96.537 E.06848
G1 X192.988 Y96.537 E.10742
G1 X192.988 Y98.25 E.05371
G1 X192.988 Y122.713 E.76702
G1 X189.562 Y122.713 E.10742
G1 X189.562 Y108.279 E.45257
G1 X189.531 Y108.095 E.00585
G1 X189.449 Y107.939 E.00553
G1 X189.214 Y107.756 E.00934
G1 X188.996 Y107.713 E.00697
G1 X58.662 Y107.713 E4.08652
G1 X58.662 Y104.617 E.09707
M204 S1000
;WIPE_START
G1 F8640
G1 X58.662 Y104.557 E-.01385
G1 X62.933 Y104.557 E-.98615
;WIPE_END
G1 Z.4 F720
G1 X57.389 Y102.18 F10800
G1 Z.2 F720
G1 E1 F2100
M204 S800
G1 F1200
G1 X57.389 Y99.664 E.07889
G1 X80.521 Y99.664 E.72529
G1 X80.238 Y99.87 E.01098
G1 X79.807 Y100.265 E.01833
G1 X79.428 Y100.711 E.01835
G1 X79.108 Y101.202 E.01838
G1 X78.891 Y101.645 E.01547
G1 X78.73 Y102.099 E.0151
G1 X78.228 Y102.067 E.01577
G1 X70.027 Y102.066 E.25714
G1 X69.814 Y101.9 E.00847
G1 X69.184 Y101.672 E.02101
G1 X68.892 Y101.626 E.00927
G1 X68.33 Y101.68 E.0177
G1 X67.957 Y101.801 E.0123
G1 X67.513 Y102.066 E.01621
G1 X57.504 Y102.066 E.31382
G1 X57.432 Y102.138 E.00319
M204 S1000
G1 X57.085 Y102.861 F10800
M204 S800
G1 F1200
G1 X57.012 Y102.934 E.00324
G1 X57.012 Y99.287 E.11435
G1 X82.37 Y99.287 E.79508
;WIDTH:0.419871
G1 X82.326 Y99.292 E.00139
;WIDTH:0.419999
G1 X81.807 Y99.434 E.01687
G1 X81.308 Y99.637 E.01689
G1 X80.838 Y99.9 E.01689
G1 X80.405 Y100.22 E.01688
G1 X80.016 Y100.592 E.01688
G1 X79.676 Y101.009 E.01687
G1 X79.391 Y101.467 E.01691
G1 X79.163 Y101.967 E.01723
G1 X79.013 Y102.496 E.01724
G1 X78.228 Y102.444 E.02467
G1 X69.884 Y102.443 E.26162
G1 X69.713 Y102.29 E.00719
G1 X69.511 Y102.175 E.00729
G1 X68.892 Y102.003 E.02014
G1 X68.369 Y102.055 E.01648
G1 X68.145 Y102.127 E.00738
G1 X67.64 Y102.443 E.01868
G1 X57.504 Y102.443 E.31781
G1 X57.127 Y102.819 E.01669
M204 S1000
;WIPE_START
G1 F8640
G1 X57.085 Y102.861 E-.01371
G1 X57.012 Y102.934 E-.02384
G1 X57.012 Y99.287 E-.8421
G1 X57.533 Y99.287 E-.12035
;WIPE_END
G1 Z.4 F720
G1 X57.445 Y109.836 F10800
G1 Z.2 F720
G1 E1 F2100
M204 S800
;WIDTH:0.531903
G1 F1200
G1 X57.478 Y109.864 E.00176
G1 X58.265 Y109.884 E.03201
G1 X57.445 Y110.704 E.04715
G1 X57.445 Y109.896 E.03285
M204 S1000
G1 X57.012 Y109.02 F10800
M204 S800
;WIDTH:0.419999
G1 F1200
G1 X57.489 Y109.431 E.01974
G1 X58.914 Y109.468 E.04469
G1 X58.927 Y109.835 E.01151
G1 X57.399 Y111.363 E.06775
G1 X57.012 Y111.363 E.01213
G1 X57.012 Y109.08 E.07158
M204 S1000
;WIPE_START
G1 F8640
G1 X57.012 Y109.02 E-.01385
G1 X57.489 Y109.431 E-.14539
G1 X58.914 Y109.468 E-.32915
G1 X58.927 Y109.835 E-.08479
G1 X57.62 Y111.142 E-.42682
;WIPE_END
G1 Z.4 F720
G1 X57.437 Y102.867 F10800
G1 Z.2 F720
G1 E1 F2100
M204 S800
;TYPE:External perimeter
;WIDTH:0.495735
G1 F1200
G1 X57.371 Y102.914 E.00305
;WIDTH:0.533603
G1 X57.305 Y102.961 E.00331
;WIDTH:0.57147
G1 X57.239 Y103.009 E.00359
G1 X57.239 Y108.866 E.25741
;WIDTH:0.575475
G1 X57.241 Y108.912 E.00204
G1 X57.306 Y108.947 E.00327
;WIDTH:0.536606
G1 X57.37 Y108.983 E.00301
;WIDTH:0.497737
G1 X57.434 Y109.019 E.00278
;WIDTH:0.458868
G1 X57.499 Y109.054 E.00255
;WIDTH:0.419999
G1 X59.279 Y109.1 E.05583
G1 X59.309 Y109.986 E.0278
G1 X57.555 Y111.74 E.07778
G1 X56.635 Y111.74 E.02885
G1 X56.635 Y109.896 E.05782
;WIDTH:0.457867
G1 X56.654 Y109.639 E.00889
;WIDTH:0.495735
G1 X56.673 Y109.381 E.00974
;WIDTH:0.533603
G1 X56.692 Y109.123 E.01056
;WIDTH:0.57147
G1 X56.711 Y108.866 E.01133
G1 X56.711 Y103.009 E.25741
G1 X56.692 Y102.744 E.01168
;WIDTH:0.533603
G1 X56.673 Y102.48 E.0108
;WIDTH:0.495735
G1 X56.654 Y102.216 E.00997
;WIDTH:0.457867
G1 X56.635 Y101.951 E.00917
;WIDTH:0.419999
G1 X56.635 Y98.91 E.09535
G1 X188.996 Y98.91 E4.15008
G1 X189.11 Y98.872 E.00377
M73 P2 R56
M73 Q2 S57
G1 X189.185 Y98.721 E.00529
G1 X189.185 Y96.16 E.0803
G1 X193.365 Y96.16 E.13106
G1 X193.365 Y98.25 E.06553
G1 X193.365 Y123.09 E.77884
G1 X189.185 Y123.09 E.13106
G1 X189.185 Y108.279 E.46439
G1 X189.147 Y108.165 E.00377
G1 X188.996 Y108.09 E.00529
G1 X58.285 Y108.09 E4.09834
G1 X58.285 Y104.18 E.1226
M73 Q2 S56
G1 X67.81 Y104.18 E.29865
G1 X68.118 Y104.45 E.01284
G1 X68.599 Y104.611 E.0159
G1 X69.155 Y104.568 E.01749
G1 X69.62 Y104.313 E.01663
G1 X69.752 Y104.18 E.00588
G1 X86.856 Y104.18 E.53628
G1 X86.924 Y104.167 E.00217
G1 X87.037 Y104.044 E.00524
G1 X87.075 Y103.512 E.01672
G1 X87.046 Y103.022 E.01539
G1 X86.955 Y102.539 E.01541
G1 X86.805 Y102.072 E.01538
G1 X86.597 Y101.627 E.0154
G1 X86.335 Y101.211 E.01541
G1 X86.023 Y100.832 E.01539
G1 X85.666 Y100.495 E.01539
G1 X85.27 Y100.205 E.01539
G1 X84.841 Y99.967 E.01538
G1 X84.385 Y99.785 E.01539
G1 X83.909 Y99.661 E.01542
G1 X83.422 Y99.598 E.0154
G1 X82.931 Y99.597 E.01539
G1 X82.444 Y99.657 E.01538
G1 X81.968 Y99.778 E.0154
G1 X81.511 Y99.957 E.01539
G1 X81.08 Y100.192 E.01539
G1 X80.682 Y100.48 E.0154
G1 X80.323 Y100.815 E.0154
G1 X80.009 Y101.192 E.01538
G1 X79.744 Y101.606 E.01541
G1 X79.574 Y101.965 E.01245
G1 X79.389 Y102.524 E.01846
G1 X79.35 Y102.922 E.01254
G1 X78.895 Y102.866 E.01437
G1 X78.228 Y102.821 E.02096
G1 X69.74 Y102.82 E.26613
G1 X69.432 Y102.55 E.01284
G1 X68.951 Y102.389 E.0159
G1 X68.396 Y102.432 E.01745
G1 X67.93 Y102.687 E.01666
G1 X67.798 Y102.82 E.00588
G1 X57.504 Y102.82 E.32276
;WIDTH:0.457867
G1 X57.486 Y102.832 E.00075
M204 S1000
;WIPE_START
G1 F8640
G1 X57.437 Y102.867 E-.0139
G1 X57.371 Y102.914 E-.01871
;WIPE_END
G1 E-.96739 F2100
G1 Z.4 F720
G1 X82.37 Y99.287 F10800
G1 Z.2 F720
G1 E1 F2100
M204 S800
;TYPE:Perimeter
;WIDTH:0.419856
G1 F1200
G1 X82.651 Y99.27 E.00882
;WIDTH:0.386313
G1 X82.931 Y99.253 E.00801
;WIDTH:0.35698
G1 X83.466 Y99.256 E.01397
;WIDTH:0.386386
G1 X83.699 Y99.27 E.00667
;WIDTH:0.415792
G1 X83.933 Y99.285 E.00727
M204 S1000
;WIPE_START
G1 F8640
G1 X83.699 Y99.27 E-.05414
;WIPE_END
G1 E-.94586 F2100
G1 Z.4 F720
G1 X79.279 Y99.834 F10800
G1 Z.2 F720
G1 E1 F2100
M204 S800
;TYPE:Solid infill
;WIDTH:0.421426
G1 F1200
G1 X79.522 Y100.077 E.01082
G1 X79.277 Y100.367 E.01195
G1 X78.913 Y100.004 E.01618
G1 X78.378 Y100.004 E.01684
G1 X79.044 Y100.67 E.02964
G1 X78.841 Y101.001 E.01222
G1 X77.843 Y100.004 E.0444
G1 X77.308 Y100.004 E.01684
G1 X78.655 Y101.351 E.05995
G1 X78.494 Y101.725 E.01282
G1 X76.772 Y100.004 E.07662
G1 X76.237 Y100.004 E.01684
G1 X77.961 Y101.727 E.07671
G1 X77.425 Y101.727 E.01687
G1 X75.702 Y100.004 E.07669
G1 X75.166 Y100.004 E.01687
G1 X76.89 Y101.727 E.07671
G1 X76.355 Y101.727 E.01684
G1 X74.631 Y100.004 E.07671
G1 X74.096 Y100.004 E.01684
G1 X75.819 Y101.727 E.07669
G1 X75.284 Y101.727 E.01684
G1 X73.561 Y100.004 E.07669
G1 X73.025 Y100.004 E.01687
G1 X74.749 Y101.727 E.07671
G1 X74.213 Y101.727 E.01687
G1 X72.49 Y100.004 E.07669
G1 X71.955 Y100.004 E.01684
G1 X73.678 Y101.727 E.07669
G1 X73.143 Y101.727 E.01684
G1 X71.419 Y100.004 E.07671
G1 X70.884 Y100.004 E.01684
G1 X72.607 Y101.727 E.07669
G1 X72.072 Y101.727 E.01684
G1 X70.349 Y100.004 E.07669
G1 X69.814 Y100.004 E.01684
G1 X71.537 Y101.727 E.07669
G1 X71.001 Y101.727 E.01687
G1 X69.278 Y100.004 E.07669
G1 X68.743 Y100.004 E.01684
G1 X70.466 Y101.727 E.07669
G1 X70.149 Y101.727 E.00998
G1 X69.986 Y101.607 E.00637
G1 X69.681 Y101.477 E.01043
G1 X68.208 Y100.004 E.06556
G1 X67.672 Y100.004 E.01687
G1 X68.965 Y101.296 E.05753
G1 X68.897 Y101.285 E.00217
G1 X68.462 Y101.329 E.01376
G1 X67.137 Y100.004 E.05897
G1 X66.602 Y100.004 E.01684
G1 X68.019 Y101.42 E.06305
G1 X67.798 Y101.5 E.0074
G1 X67.65 Y101.587 E.0054
G1 X66.067 Y100.004 E.07046
G1 X65.531 Y100.004 E.01687
G1 X67.254 Y101.726 E.07667
G1 X66.719 Y101.726 E.01684
G1 X64.996 Y100.004 E.07667
G1 X64.461 Y100.004 E.01684
G1 X66.184 Y101.726 E.07667
G1 X65.648 Y101.726 E.01687
G1 X63.925 Y100.004 E.07667
G1 X63.39 Y100.004 E.01684
G1 X65.113 Y101.726 E.07667
G1 X64.578 Y101.726 E.01684
G1 X62.855 Y100.004 E.07667
G1 X62.32 Y100.004 E.01684
G1 X64.043 Y101.726 E.07667
G1 X63.507 Y101.726 E.01687
G1 X61.784 Y100.004 E.07667
G1 X61.249 Y100.004 E.01684
G1 X62.972 Y101.726 E.07667
G1 X62.437 Y101.726 E.01684
G1 X60.714 Y100.004 E.07667
G1 X60.178 Y100.004 E.01687
M73 P2 R55
G1 X61.901 Y101.726 E.07667
G1 X61.366 Y101.726 E.01684
G1 X59.643 Y100.004 E.07667
G1 X59.108 Y100.004 E.01684
G1 X60.831 Y101.726 E.07667
G1 X60.295 Y101.726 E.01687
G1 X58.573 Y100.004 E.07665
G1 X58.037 Y100.004 E.01687
G1 X59.76 Y101.726 E.07667
G1 X59.225 Y101.726 E.01684
G1 X57.729 Y100.23 E.06659
G1 X57.729 Y100.765 E.01684
G1 X58.69 Y101.726 E.04277
G1 X58.154 Y101.726 E.01687
G1 X57.559 Y101.131 E.02648
M204 S1000
;WIPE_START
G1 F8640
G1 X58.154 Y101.726 E-.19429
G1 X58.69 Y101.726 E-.12376
G1 X57.729 Y100.765 E-.31381
G1 X57.729 Y100.23 E-.12353
G1 X58.478 Y100.979 E-.24461
;WIPE_END
G1 Z.4 F720
G1 X192.441 Y97.849 F10800
G1 Z.2 F720
G1 E1 F2100
M204 S800
;WIDTH:0.421248
G1 F1200
G1 X191.846 Y97.254 E.02647
G1 X191.311 Y97.254 E.01683
G1 X192.271 Y98.214 E.04271
G1 X192.271 Y98.749 E.01683
G1 X190.776 Y97.254 E.06651
G1 X190.279 Y97.254 E.01563
G1 X190.279 Y97.291 E.00116
G1 X192.271 Y99.284 E.08864
G1 X192.271 Y99.819 E.01683
G1 X190.279 Y97.826 E.08864
G1 X190.279 Y98.361 E.01683
G1 X192.271 Y100.354 E.08864
G1 X192.271 Y100.889 E.01683
G1 X190.265 Y98.883 E.08924
G1 X190.208 Y99.143 E.00837
G1 X190.133 Y99.286 E.00508
G1 X192.271 Y101.424 E.09512
G1 X192.271 Y101.959 E.01683
G1 X189.914 Y99.601 E.10488
G1 X189.768 Y99.747 E.0065
G1 X189.613 Y99.836 E.00562
G1 X192.271 Y102.494 E.11825
G1 X192.271 Y103.029 E.01683
G1 X189.225 Y99.983 E.13551
G1 X188.711 Y100.004 E.01618
G1 X192.271 Y103.564 E.15838
G1 X192.271 Y104.099 E.01683
G1 X188.176 Y100.004 E.18218
G1 X187.64 Y100.004 E.01686
G1 X192.271 Y104.635 E.20603
G1 X192.271 Y105.17 E.01683
G1 X187.105 Y100.004 E.22983
G1 X186.57 Y100.004 E.01683
G1 X192.271 Y105.705 E.25363
G1 X192.271 Y106.24 E.01683
G1 X186.035 Y100.004 E.27743
G1 X185.5 Y100.004 E.01683
G1 X192.271 Y106.775 E.30123
G1 X192.271 Y107.31 E.01683
G1 X184.965 Y100.004 E.32503
G1 X184.43 Y100.004 E.01683
G1 X192.271 Y107.845 E.34883
G1 X192.271 Y108.38 E.01683
G1 X183.895 Y100.004 E.37264
G1 X183.36 Y100.004 E.01683
G1 X192.271 Y108.915 E.39644
G1 X192.271 Y109.45 E.01683
G1 X182.825 Y100.004 E.42024
G1 X182.29 Y100.004 E.01683
G1 X192.271 Y109.985 E.44404
G1 X192.271 Y110.52 E.01683
G1 X190.279 Y108.527 E.08864
G1 X190.279 Y109.062 E.01683
G1 X192.271 Y111.055 E.08864
G1 X192.271 Y111.59 E.01683
G1 X190.279 Y109.597 E.08864
G1 X190.279 Y110.132 E.01683
G1 X192.271 Y112.125 E.08864
G1 X192.271 Y112.66 E.01683
G1 X190.279 Y110.667 E.08864
G1 X190.279 Y111.202 E.01683
G1 X192.271 Y113.195 E.08864
G1 X192.271 Y113.73 E.01683
M73 P3 R55
G1 X190.279 Y111.737 E.08864
G1 X190.279 Y112.272 E.01683
G1 X192.271 Y114.265 E.08864
G1 X192.271 Y114.8 E.01683
G1 X190.279 Y112.807 E.08864
G1 X190.279 Y113.342 E.01683
M73 Q3 S56
G1 X192.271 Y115.335 E.08864
G1 X192.271 Y115.87 E.01683
G1 X190.279 Y113.877 E.08864
G1 X190.279 Y114.412 E.01683
G1 X192.271 Y116.405 E.08864
G1 X192.271 Y116.94 E.01683
G1 X190.279 Y114.947 E.08864
G1 X190.279 Y115.482 E.01683
G1 X192.271 Y117.475 E.08864
G1 X192.271 Y118.01 E.01683
G1 X190.279 Y116.017 E.08864
G1 X190.279 Y116.553 E.01686
G1 X192.271 Y118.545 E.08862
G1 X192.271 Y119.081 E.01686
G1 X190.279 Y117.088 E.08864
G1 X190.279 Y117.623 E.01683
G1 X192.271 Y119.616 E.08864
